!!!!SEGMENT: pl-kk--kk-i-94--001-002_lilius-franciszek--missa-brevissima-et-in-terra.krn
!!!cenid: 17xx:2633
!!!COM: Lilius, Franciszek
!!!COM-rismID: pe30020509
!!!CDT: ~1600-1657
!!!CNT: Polish
!!!OPR: Missa Brevissima
!!!OTL: Et in terra
!!!OMV: 002
!!!PDT:
!!!AGN: Sacred; Mass
!!!YEC: Copyright 2022 Narodowy Instytut Fryderyka Chopina (https://polishscores.org)
!!!YEM: License CC-BY-4.0 (https://creativecommons.org/licenses/by/4.0)
!!!SMS-siglum: PL-Kk
!!!SMS-shelfmark: Kk.I.94
!!!SMS-variant: Baſsus pro Organo.: PL-Kk Kk.I.94:40-41
!!!SMS-altvar: Pro Organo: PL-Kk Kk.I.94:34-35
!!!SMS-shelfwork: 001-002 M
!!!NIFC-rismSourceID: 1001156388
!!!NIFC-rismChildID: 1001156388
!!!NIFC-islandoraID: pl-kk:3195
!!!URL-pdf-islandora: https://repozytorium.nifc.pl/islandora/object/pl-kk:3195/datastream/PDF/view
!!!URL-scan: https://polish.musicsources.pl/pl/lokalizacje/galeria/rekopisy/6153/4 @EN{Scan on Polish Music Sources Website} @PL{Skany w portalu Dziedzictwo Muzyki Polskiej w otwartym dostępie}
!!!IIIF:
!!!ONB-nifc: UWAGA: Części Mszy: 1. Kyrie, 2. Et in terra, 3. Patrem, 4. Sanctus, 5. Agnus Dei.
!!!AIN: 2 alto 2 bass 1 organ 2 soprn 2 tenor 2 violn
!!!key: d:dor
**kern	**fba	**kern	**text	**kern	**text	**kern	**text	**kern	**text	**kern	**text	**kern	**text	**kern	**text	**kern	**text	**kern	**text	**kern	**text
*	*	*	*	*	*	*group2	*	*group2	*	*group2	*	*group2	*	*group1	*	*group1	*	*group1	*	*group1	*
*part11	*part11	*part10	*part10	*part9	*part9	*part8	*part8	*part7	*part7	*part6	*part6	*part5	*part5	*part4	*part4	*part3	*part3	*part2	*part2	*part1	*part1
*staff11	*staff11	*staff10	*staff10	*staff9	*staff9	*staff8	*staff8	*staff7	*staff7	*staff6	*staff6	*staff5	*staff5	*staff4	*staff4	*staff3	*staff3	*staff2	*staff2	*staff1	*staff1
*IGcont	*	*	*	*	*	*IGcoro	*	*IGcoro	*	*IGcoro	*	*IGcoro	*	*IGcoro	*	*IGcoro	*	*IGcoro	*	*IGcoro	*
*ICklav	*	*ICstr	*	*ICstr	*	*ICvox	*	*ICvox	*	*ICvox	*	*ICvox	*	*ICvox	*	*ICvox	*	*ICvox	*	*ICvox	*
*Iorgan	*	*Ivioln	*	*Ivioln	*	*Ibass	*	*Itenor	*	*Itenor	*	*Ialto	*	*Ibass	*	*Ialto	*	*Isoprn	*	*Isoprn	*
*I"Baſsus pro Organo.	*	*I"Violino 3o.	*	*I"Violino 2do.	*	*I"Baſs(us) 2 Chori	*	*I"Tenor 2d(us) Chori 2di	*	*I"Tenor 1mus 2di Chori	*	*I"Altus 2di Chori.	*	*I"Baſsus 1mi Chori	*	*I"Altus Primi Chori	*	*I"Cant(us) 2d(us). Chori Imi.	*	*I"Cant(us) I Primi Chori	*
*I'org	*	*I'vl 3	*	*I'vl 2	*	*I'Coro 2 B 2	*	*I'Coro 2 T 2	*	*I'Coro 2 T 1	*	*I'Coro 2 A 2	*	*I'Coro 1 B 1	*	*I'Coro 1 A 1	*	*I'Coro 1 S 2	*	*I'Coro 1 S 1	*
*clefC4	*	*clefC4	*	*clefC4	*	*clefF4	*	*clefC4	*	*clefC4	*	*clefC3	*	*clefC4	*	*clefC3	*	*clefC1	*	*clefC1	*
*k[]	*	*k[]	*	*k[]	*	*k[]	*	*k[]	*	*k[]	*	*k[]	*	*k[]	*	*k[]	*	*k[]	*	*k[]	*
*d:dor	*	*d:dor	*	*d:dor	*	*d:dor	*	*d:dor	*	*d:dor	*	*d:dor	*	*d:dor	*	*d:dor	*	*d:dor	*	*d:dor	*
*M3/2	*	*M3/2	*	*M3/2	*	*M3/2	*	*M3/2	*	*M3/2	*	*M3/2	*	*M3/2	*	*M3/2	*	*M3/2	*	*M3/2	*
*all\right	*	*	*	*	*	*all\right	*	*	*	*all\right	*	*	*	*all\right	*	*all\right	*	*	*	*all\right	*
=1-	=1-	=1-	=1-	=1-	=1-	=1-	=1-	=1-	=1-	=1-	=1-	=1-	=1-	=1-	=1-	=1-	=1-	=1-	=1-	=1-	=1-
*	*	*	*	*	*	*	*	*	*	*	*	*	*	*	*	*	*	*	*	*2\right	*
!	!	!LO:TX:t=P:problem=partia tenoru 2, dopisane "Violino 3o."	!	!LO:TX:t=P:problem=partia tenoru 1, dopisane "Violino 2do."	!	!	!	!	!	!	!	!	!	!	!	!	!	!	!	!	!
1d	.	00.r	.	00.r	.	00.r	.	00.r	.	00.r	.	00.r	.	1d	Et	1f	Et	00.r	.	2a\	Et
.	.	.	.	.	.	.	.	.	.	.	.	.	.	.	.	.	.	.	.	2a\	in
*2\right	*	*	*	*	*	*	*	*	*	*	*	*	*	*2\right	*	*2\right	*	*	*	*col	*
!LO:TX:b:t=a3.	!	!	!	!	!	!	!	!	!	!	!	!	!	!LO:TX:t=P:problem=kreska pseudotaktowa	!	!LO:TX:t=P:problem=kreska pseudotaktowa	!	!	!	!	!
2c\	6	.	.	.	.	.	.	.	.	.	.	.	.	2c\	in	2e\	in	.	.	1a\	ter-
=2-	=2-	=2-	=2-	=2-	=2-	=2-	=2-	=2-	=2-	=2-	=2-	=2-	=2-	=2-	=2-	=2-	=2-	=2-	=2-	=2-	=2-
!LO:TX:t=P:problem=kreska pseudotaktowa	!	!	!	!	!	!	!	!	!	!	!	!	!	!	!	!	!	!	!	!	!
1.B-X	7	.	.	.	.	.	.	.	.	.	.	.	.	1B-X	ter-	1d	ter-	.	.	.	.
!	!	!	!	!	!	!	!	!	!	!	!	!	!	!	!	!	!	!	!	!LO:TX:t=P:problem=kreska pseudotaktowa	!
.	6	.	.	.	.	.	.	.	.	.	.	.	.	.	.	.	.	.	.	1g	-ra
.	.	.	.	.	.	.	.	.	.	.	.	.	.	2B-\	-ra	2d\	-ra	.	.	.	.
*	*	*	*	*	*	*	*	*	*	*	*	*	*	*	*	*	*	*	*	*Xcol	*
!	!	!	!	!	!	!	!	!	!	!	!	!	!	!LO:TX:t=P:problem=kreska pseudotaktowa	!	!	!	!	!	!	!
=3-	=3-	=3-	=3-	=3-	=3-	=3-	=3-	=3-	=3-	=3-	=3-	=3-	=3-	=3-	=3-	=3-	=3-	=3-	=3-	=3-	=3-
1A	#	.	.	.	.	.	.	.	.	.	.	.	.	1A	pax	1c#X	pax	.	.	1a	pax
!	!	!	!	!	!	!	!	!	!	!	!	!	!	!LO:TX:t=P:problem=kreska pseudotaktowa	!	!LO:TX:t=P:problem=kreska pseudotaktowa	!	!	!	!LO:TX:t=P:problem=kreska pseudotaktowa	!
2F#X/	6	.	.	.	.	.	.	.	.	.	.	.	.	2F#X/	ho-	2d\	ho-	.	.	2a\	ho-
=4-	=4-	=4-	=4-	=4-	=4-	=4-	=4-	=4-	=4-	=4-	=4-	=4-	=4-	=4-	=4-	=4-	=4-	=4-	=4-	=4-	=4-
!	!	!	!	!	!	!	!	!	!	!	!	!	!	!	!	!	!	!LO:TX:t=P:problem=kreska pseudotaktowa	!	!	!
2G/	6 5	.	.	.	.	.	.	.	.	.	.	.	.	2G/	-mi-	1d	-mi-	.	.	1e	-mi-
!LO:TX:t=P:problem=kreska pseudotaktowa	!	!	!	!	!	!	!	!	!	!	!	!	!	!	!	!	!	!	!	!	!
1A	4	.	.	.	.	.	.	.	.	.	.	.	.	2.A/	.	.	.	.	.	.	.
!	!	!	!	!	!	!	!	!	!	!	!	!	!	!	!	!LO:TX:t=P:problem=kreska pseudotaktowa	!	!	!	!	!
.	3	.	.	.	.	.	.	.	.	.	.	.	.	.	.	2c#X/	-ni-	.	.	2e/	-ni-
!	!	!	!	!	!	!	!	!	!	!	!	!	!	!LO:TX:t=P:problem=kreska pseudotaktowa	!	!	!	!	!	!	!
.	.	.	.	.	.	.	.	.	.	.	.	.	.	4A/	-ni-	.	.	.	.	.	.
=5-	=5-	=5-	=5-	=5-	=5-	=5-	=5-	=5-	=5-	=5-	=5-	=5-	=5-	=5-	=5-	=5-	=5-	=5-	=5-	=5-	=5-
2D/	.	0.r	.	0.r	.	0.r	.	0.r	.	0.r	.	0.r	.	2D/	-bus	2d\	-bus	2r	.	2f#X/	-bus
*	*	*	*	*	*	*	*	*	*	*	*	*	*	*	*	*	*	*2\right	*	*	*
!LO:TX:b:t=a 4.	!	!	!	!	!	!	!	!	!	!	!	!	!	!	!	!	!	!	!	!	!
2d\	.	.	.	.	.	.	.	.	.	.	.	.	.	2d\	bo-	2f#X\	bo-	2dd\	Bo-	2a\	bo-
!	!	!	!	!	!	!	!	!	!	!	!	!	!	!LO:TX:t=P:problem=kreska pseudotaktowa	!	!LO:TX:t=P:problem=kreska pseudotaktowa	!	!LO:TX:t=P:problem=kreska pseudotaktowa	!	!LO:TX:t=P:problem=kreska pseudotaktowa	!
2d\	.	.	.	.	.	.	.	.	.	.	.	.	.	2d\	-nae	2f#\	-nae	2dd\	-nae	2a\	-nae
=6-	=6-	=6-	=6-	=6-	=6-	=6-	=6-	=6-	=6-	=6-	=6-	=6-	=6-	=6-	=6-	=6-	=6-	=6-	=6-	=6-	=6-
2.A\	.	.	.	.	.	.	.	.	.	.	.	.	.	2.A\	vo-	1a	vo-	2.ee\	vo-	4cc\	vo-
.	.	.	.	.	.	.	.	.	.	.	.	.	.	.	.	.	.	.	.	4b\	.
.	.	.	.	.	.	.	.	.	.	.	.	.	.	.	.	.	.	.	.	4cc\	.
4Bny\	.	.	.	.	.	.	.	.	.	.	.	.	.	4Bny\	.	.	.	4dd\	.	4dd\	.
!LO:TX:t=P:problem=kreska pseudotaktowa	!	!	!	!	!	!	!	!	!	!	!	!	!	!LO:TX:t=P:problem=kreska pseudotaktowa	!	!	!	!LO:TX:t=P:problem=kreska pseudotaktowa	!	!	!
2c\	.	.	.	.	.	.	.	.	.	.	.	.	.	2c\	.	2a\	-lun-	2cc\	.	2ee\	.
=7-	=7-	=7-	=7-	=7-	=7-	=7-	=7-	=7-	=7-	=7-	=7-	=7-	=7-	=7-	=7-	=7-	=7-	=7-	=7-	=7-	=7-
!	!	!	!	!	!	!LO:TX:t=P:problem=kreska pseudotaktowa	!	!LO:TX:t=P:problem=kreska pseudotaktowa	!	!LO:TX:t=P:problem=kreska pseudotaktowa	!	!LO:TX:t=P:problem=kreska pseudotaktowa	!	!	!	!	!	!	!	!	!
2d\	.	1.r	.	1.r	.	1.r	.	1.r	.	1.r	.	1.r	.	2d\	-lun-	1a	-ta-	2ff\	-lun-	2dd\	-lun-
1e	4	.	.	.	.	.	.	.	.	.	.	.	.	1e	-ta-	.	.	1ee	-ta-	1b	-ta-
!	!	!	!	!	!	!	!	!	!	!	!	!	!	!	!	!LO:TX:t=P:problem=# above	!	!	!	!	!
.	#	.	.	.	.	.	.	.	.	.	.	.	.	.	.	2g#X\	.	.	.	.	.
*clefF4	*	*	*	*	*	*	*	*	*	*	*	*	*	*	*	*	*	*	*	*	*
=8-	=8-	=8-	=8-	=8-	=8-	=8-	=8-	=8-	=8-	=8-	=8-	=8-	=8-	=8-	=8-	=8-	=8-	=8-	=8-	=8-	=8-
*	*	*	*	*2\right	*	*	*	*	*	*2\right	*	*2\right	*	*	*	*	*	*	*	*	*
!	!	!	!	!	!	!	!	!	!	!	!	!	!	!	!	!	!	!	!	!LO:SIC:v:s=1.cc	!
!LO:TX:b:i:t=T.	!	!	!	!	!	!	!	!	!	!	!	!	!	!LO:TX:t=P:problem=kreska pseudotaktowa	!	!LO:TX:t=P:problem=kreska pseudotaktowa	!	!LO:TX:t=P:problem=kreska pseudotaktowa	!	!LO:TX:t=P:problem=kreska pseudotaktowa	!
2AA/	-	2A/	Lau-	2c\	Lau-	2AA/	Lau-	2A/	Lau-	2c\	Lau-	2e\	Lau-	1.A	-tis	1.a	-tis	1.ee	-tis	1.cc#X	-tis
2.AA/	.	2.A/	-da-	2.c\	-da-	2.AA/	-da-	2.A/	-da-	2.c\	-da-	2.e\	-da-	.	.	.	.	.	.	.	.
!	!	!	!	!	!	!	!	!	!	!	!	!LO:TX:t=P:problem=kreska pseudotaktowa	!	!	!	!	!	!	!	!	!
4AA/	.	4A/	-mus	4c\	-mus	4AA/	-mus	4A/	-mus	4c\	-mus	4e\	-mus	.	.	.	.	.	.	.	.
=9-	=9-	=9-	=9-	=9-	=9-	=9-	=9-	=9-	=9-	=9-	=9-	=9-	=9-	=9-	=9-	=9-	=9-	=9-	=9-	=9-	=9-
2D/	#	2A/	te	2d\	te	2D/	te	2A/	te	2d\	te	2f#X\	te	0.r	.	0.r	.	0.r	.	0.r	.
2D/	.	2A/	be-	2d\	be-	2D/	be-	2A/	be-	2d\	be-	2f#\	be-	.	.	.	.	.	.	.	.
*	*	*2\right	*	*	*	*	*	*2\right	*	*	*	*	*	*	*	*	*	*	*	*	*
!	!	!	!	!	!	!LO:TX:t=P:problem=kreska pseudotaktowa	!	!LO:TX:t=P:problem=kreska pseudotaktowa	!	!LO:TX:t=P:problem=kreska pseudotaktowa	!	!LO:TX:t=P:problem=kreska pseudotaktowa	!	!	!	!	!	!	!	!	!
2BB/	6	2B\	-ne-	2d\	-ne-	2BB/	-ne-	2B\	-ne-	2d\	-ne-	2g\	-ne-	.	.	.	.	.	.	.	.
=10-	=10-	=10-	=10-	=10-	=10-	=10-	=10-	=10-	=10-	=10-	=10-	=10-	=10-	=10-	=10-	=10-	=10-	=10-	=10-	=10-	=10-
!	!	!	!	!	!	!	!	!	!	!	!	!	!	!LO:TX:t=P:problem=kreska pseudotaktowa	!	!	!	!	!	!	!
2.C/	.	2.G/	-di-	2.c\	-di-	2.C/	-di-	2.G/	-di-	2.c\	-di-	2.e\	-di-	.	.	.	.	.	.	.	.
4GG/	.	4B\	-ci-	4d\	-ci-	4GG/	-ci-	4B\	-ci-	4d\	-ci-	4g\	-ci-	.	.	.	.	.	.	.	.
!LO:LB:g=original	!	!	!	!	!	!	!	!	!	!	!	!LO:TX:t=P:problem=kreska pseudotaktowa	!	!	!	!	!	!	!	!	!
!LO:TX:t=P:problem=kreska pseudotaktowa	!	!	!	!	!	!LO:TX:t=P:problem=kreska pseudotaktowa	!	!	!	!	!	!LO:TX:b:t=P:problem=# below	!	!	!	!	!	!	!	!	!
2D/	#	2A/	-mus	2d\	-mus	2D/	-mus	2A/	-mus	2d\	-mus	2f#X\	-mus	.	.	.	.	.	.	.	.
=11-	=11-	=11-	=11-	=11-	=11-	=11-	=11-	=11-	=11-	=11-	=11-	=11-	=11-	=11-	=11-	=11-	=11-	=11-	=11-	=11-	=11-
!	!	!	!	!	!	!LO:TX:t=P:problem=kreska pseudotaktowa	!	!	!	!	!	!	!	!	!	!	!	!	!	!	!
2GG/	.	1B	te	1d	te	1.GG	te	1B	te	1d	te	1g	te	1G	A-	1gny	A-	1b	A-	2dd\	A-
2G\	.	.	.	.	.	.	.	.	.	.	.	.	.	.	.	.	.	.	.	2b\	-do-
*	*	*	*	*	*	*	*	*	*	*	*	*	*	*	*	*	*	*	*	*col	*
!	!	!	!	!	!	!	!	!LO:TX:t=P:problem=kreska pseudotaktowa	!	!LO:TX:t=P:problem=kreska pseudotaktowa	!	!LO:TX:t=P:problem=kreska pseudotaktowa	!	!	!	!LO:TX:t=P:problem=kreska pseudotaktowa	!	!LO:TX:t=P:problem=kreska pseudotaktowa	!	!	!
2Fny\	.	2r	.	2r	.	.	.	2r	.	2r	.	2r	.	2Fny/	-do-	2d\	-do-	2a\	-do-	1dd\	-ra-
=12-	=12-	=12-	=12-	=12-	=12-	=12-	=12-	=12-	=12-	=12-	=12-	=12-	=12-	=12-	=12-	=12-	=12-	=12-	=12-	=12-	=12-
1.E	7	00.r	.	00.r	.	00.r	.	00.r	.	00.r	.	00.r	.	1E	-ra-	1e	-ra-	1g	-ra-	.	.
!	!	!	!	!	!	!	!	!	!	!	!	!	!	!	!	!	!	!	!	!LO:TX:t=P:problem=kreska pseudotaktowa	!
.	6	.	.	.	.	.	.	.	.	.	.	.	.	.	.	.	.	.	.	1cc#X	-mus
!	!	!	!	!	!	!	!	!	!	!	!	!	!	!LO:TX:t=P:problem=kreska pseudotaktowa	!	!	!	!	!	!	!
.	.	.	.	.	.	.	.	.	.	.	.	.	.	2E/	-mus	2e\	-mus	2g/	-mus	.	.
*	*	*	*	*	*	*	*	*	*	*	*	*	*	*	*	*	*	*	*	*Xcol	*
!	!	!	!	!	!	!	!	!	!	!	!	!	!	!LO:LB:g=original	!	!	!	!	!	!	!
=13-	=13-	=13-	=13-	=13-	=13-	=13-	=13-	=13-	=13-	=13-	=13-	=13-	=13-	=13-	=13-	=13-	=13-	=13-	=13-	=13-	=13-
!	!	!	!	!	!	!	!	!	!	!	!	!	!	!	!	!LO:TX:t=P:problem=kreska pseudotaktowa	!	!	!	!	!
!LO:TX:b:i:t=a 4.	!	!	!	!	!	!	!	!	!	!	!	!	!	!	!	!LO:TX:t=P:problem=# above	!	!LO:TX:t=P:problem=kreska pseudotaktowa	!	!	!
1D	.	.	.	.	.	.	.	.	.	.	.	.	.	1D	te	1.f#X	te	1.a	te	2dd\	te
.	.	.	.	.	.	.	.	.	.	.	.	.	.	.	.	.	.	.	.	2dd\	glo-
*clefC4	*	*	*	*	*	*	*	*	*	*	*	*	*	*	*	*	*	*	*	*	*
!LO:TX:t=P:problem=kreska pseudotaktowa	!	!	!	!	!	!	!	!	!	!	!	!	!	!LO:TX:t=P:problem=kreska pseudotaktowa	!	!	!	!	!	!LO:LB:g=original	!
2d\	.	.	.	.	.	.	.	.	.	.	.	.	.	2d\	glo-	.	.	.	.	4a\	-ri-
!	!	!	!	!	!	!	!	!	!	!	!	!	!	!	!	!	!	!	!	!LO:TX:t=P:problem=kreska pseudotaktowa	!
.	.	.	.	.	.	.	.	.	.	.	.	.	.	.	.	.	.	.	.	4b\	-fi-
!	!	!	!	!	!	!	!	!	!	!	!	!	!	!	!	!LO:LB:g=original	!	!	!	!	!
=14-	=14-	=14-	=14-	=14-	=14-	=14-	=14-	=14-	=14-	=14-	=14-	=14-	=14-	=14-	=14-	=14-	=14-	=14-	=14-	=14-	=14-
4A\	.	.	.	.	.	.	.	.	.	.	.	.	.	4A\	-ri-	2a\	Glo-	2r	.	2.ccny\	-ca-
4B\	.	.	.	.	.	.	.	.	.	.	.	.	.	4B\	-fi-	.	.	.	.	.	.
2.c\	.	.	.	.	.	.	.	.	.	.	.	.	.	2.c\	-ca-	4e\	-ri-	2cc\	glo-	.	.
.	.	.	.	.	.	.	.	.	.	.	.	.	.	.	.	4fny\	-fi-	.	.	4dd\	.
.	.	.	.	.	.	.	.	.	.	.	.	.	.	.	.	2.g\	-ca-	4g/	-ri-	4ee\	.
!	!	!	!	!	!	!	!	!	!	!	!	!	!	!	!	!	!	!LO:TX:t=P:problem=kreska pseudotaktowa	!	!	!
8B\L	.	.	.	.	.	.	.	.	.	.	.	.	.	8B\L	.	.	.	4a\	-fi-	8dd\L	.
!LO:TX:t=P:problem=kreska pseudotaktowa	!	!	!	!	!	!	!	!	!	!	!	!	!	!LO:TX:t=P:problem=kreska pseudotaktowa	!	!	!	!	!	!LO:TX:t=P:problem=kreska pseudotaktowa	!
8A\J	.	.	.	.	.	.	.	.	.	.	.	.	.	8A\J	.	.	.	.	.	8cc\J	.
=15-	=15-	=15-	=15-	=15-	=15-	=15-	=15-	=15-	=15-	=15-	=15-	=15-	=15-	=15-	=15-	=15-	=15-	=15-	=15-	=15-	=15-
!	!	!	!	!	!	!	!	!	!	!	!	!	!	!	!	!	!	!	!	!LO:TX:t=P:problem=kreska pseudotaktowa	!
2.G/	.	.	.	.	.	.	.	.	.	.	.	.	.	2.G/	.	.	.	2.b-X\	-ca-	1.dd	.
.	.	.	.	.	.	.	.	.	.	.	.	.	.	.	.	8f\L	.	.	.	.	.
.	.	.	.	.	.	.	.	.	.	.	.	.	.	.	.	8e\J	.	.	.	.	.
.	.	.	.	.	.	.	.	.	.	.	.	.	.	.	.	2.d\	.	.	.	.	.
4A/	.	.	.	.	.	.	.	.	.	.	.	.	.	4A/	.	.	.	8a\L	.	.	.
.	.	.	.	.	.	.	.	.	.	.	.	.	.	.	.	.	.	8g\J	.	.	.
!LO:TX:t=P:problem=kreska pseudotaktowa	!	!	!	!	!	!	!	!	!	!	!	!	!	!LO:TX:t=P:problem=kreska pseudotaktowa	!	!	!	!LO:TX:t=P:problem=kreska pseudotaktowa	!	!	!
2B-X\	.	.	.	.	.	.	.	.	.	.	.	.	.	2B-X\	.	.	.	2f/	.	.	.
!	!	!	!	!	!	!	!	!	!	!	!	!	!	!	!	!LO:TX:t=P:problem=kreska pseudotaktowa	!	!	!	!	!
.	.	.	.	.	.	.	.	.	.	.	.	.	.	.	.	4e\	.	.	.	.	.
!	!	!	!	!	!	!	!	!	!	!	!	!	!	!	!	!	!	!LO:LB:g=original	!	!	!
=16-	=16-	=16-	=16-	=16-	=16-	=16-	=16-	=16-	=16-	=16-	=16-	=16-	=16-	=16-	=16-	=16-	=16-	=16-	=16-	=16-	=16-
!	!	!	!	!	!	!LO:TX:t=P:problem=kreska pseudotaktowa	!	!LO:TX:t=P:problem=kreska pseudotaktowa	!	!LO:TX:t=P:problem=kreska pseudotaktowa	!	!LO:TX:t=P:problem=kreska pseudotaktowa	!	!	!	!	!	!	!	!	!
2F/	.	1.r	.	1.r	.	1.r	.	1.r	.	1.r	.	1.r	.	2F/	.	1f	.	2a\	.	1cc	.
!LO:TX:t=P:problem=kreska pseudotaktowa	!	!	!	!	!	!	!	!	!	!	!	!	!	!	!	!	!	!	!	!	!
1c	4	.	.	.	.	.	.	.	.	.	.	.	.	2.c\	.	.	.	2.g/	.	.	.
.	3	.	.	.	.	.	.	.	.	.	.	.	.	.	.	2e\	-mus	.	.	2cc\	-mus
.	.	.	.	.	.	.	.	.	.	.	.	.	.	4c\	-mus	.	.	4g/	-mus	.	.
*clefF4	*	*	*	*	*	*	*	*	*	*	*	*	*	*	*	*	*	*	*	*	*
=17-	=17-	=17-	=17-	=17-	=17-	=17-	=17-	=17-	=17-	=17-	=17-	=17-	=17-	=17-	=17-	=17-	=17-	=17-	=17-	=17-	=17-
!LO:TX:b:i:t=Tut&colon;	!	!	!	!	!	!	!	!	!	!	!	!	!	!LO:TX:t=P:problem=kreska pseudotaktowa	!	!	!	!	!	!	!
2.FF/	.	2.A/	Gra-	2.c\	Gra-	2.FF/	gra-	2.A/	Gra-	2.c\	Gra-	2.fny\	Gra-	1.F	te	1f	te	1a	te	1cc	te
4FF/	.	4A/	-ti-	4c\	-ti-	4FF/	-ti-	4A/	-ti-	4c\	-ti-	4f\	-ti-	.	.	.	.	.	.	.	.
!LO:TX:t=P:problem=kreska pseudotaktowa	!	!	!	!	!	!LO:TX:t=P:problem=kreska pseudotaktowa	!	!LO:TX:t=P:problem=kreska pseudotaktowa	!	!LO:TX:t=P:problem=kreska pseudotaktowa	!	!LO:TX:t=P:problem=kreska pseudotaktowa	!	!	!	!LO:TX:t=P:problem=kreska pseudotaktowa	!	!LO:TX:t=P:problem=kreska pseudotaktowa	!	!LO:TX:t=P:problem=kreska pseudotaktowa	!
2FF/	.	2A/	-as	2c\	-as	2FF/	-as	2A/	-as	2c\	-as	2f\	-as	.	.	2r	.	2r	.	2r	.
=18-	=18-	=18-	=18-	=18-	=18-	=18-	=18-	=18-	=18-	=18-	=18-	=18-	=18-	=18-	=18-	=18-	=18-	=18-	=18-	=18-	=18-
1C	.	2.G/	a-	2.c\	a-	2.C/	a-	2.G/	a-	2.c\	a-	2.e\	a-	2.C/	Gra-	2.g\	Gra-	2.cc\	Gra-	2.ee\	Gra-
.	.	4G/	-gi-	4c\	-gi-	4C/	-gi-	4G/	-gi-	4c\	-gi-	4e\	-gi-	4C/	-ti-	4g\	-ti-	4cc\	-ti-	4ee\	-ti-
!LO:TX:t=P:problem=kreska pseudotaktowa	!	!	!	!	!	!LO:TX:t=P:problem=kreska pseudotaktowa	!	!LO:TX:t=P:problem=kreska pseudotaktowa	!	!LO:TX:t=P:problem=kreska pseudotaktowa	!	!LO:TX:t=P:problem=kreska pseudotaktowa	!	!LO:TX:t=P:problem=kreska pseudotaktowa	!	!LO:TX:t=P:problem=kreska pseudotaktowa	!	!LO:TX:t=P:problem=kreska pseudotaktowa	!	!	!
2C/	.	2G/	-mus	2G/	-mus	2C/	-mus	2G/	-mus	2G/	-mus	2c/	-mus	2C/	-as	2g\	-as	2cc\	-as	2ee\	-as
=19-	=19-	=19-	=19-	=19-	=19-	=19-	=19-	=19-	=19-	=19-	=19-	=19-	=19-	=19-	=19-	=19-	=19-	=19-	=19-	=19-	=19-
1GG	.	1G	ti-	1B	ti-	1GG	ti-	1G	ti-	1B	ti-	1d	ti-	2.G/	a-	2.g\	a-	2.bny\	a-	2.dd\	a-
.	.	.	.	.	.	.	.	.	.	.	.	.	.	4G/	-gi-	4g\	-gi-	4b\	-gi-	4dd\	-gi-
!	!	!	!	!	!	!LO:TX:t=P:problem=kreska pseudotaktowa	!	!LO:TX:t=P:problem=kreska pseudotaktowa	!	!LO:TX:t=P:problem=kreska pseudotaktowa	!	!LO:TX:t=P:problem=kreska pseudotaktowa	!	!LO:TX:t=P:problem=kreska pseudotaktowa	!	!	!	!LO:TX:t=P:problem=kreska pseudotaktowa	!	!LO:TX:t=P:problem=kreska pseudotaktowa	!
2GG/	.	2G/	-bi	2B\	-bi	2GG/	-bi	2G/	-bi	2B\	-bi	2d\	-bi	2G/	-mus	2g\	-mus	2b\	-m(us)	2dd\	-mus
!	!	!	!	!	!	!	!	!	!	!	!	!LO:LB:g=original	!	!	!	!	!	!	!	!	!
=20-	=20-	=20-	=20-	=20-	=20-	=20-	=20-	=20-	=20-	=20-	=20-	=20-	=20-	=20-	=20-	=20-	=20-	=20-	=20-	=20-	=20-
!	!	!	!	!	!	!	!	!	!	!	!	!	!	!	!	!LO:SIC:v:s=1f	!	!	!	!	!
1D	.	2.A/	p(ro)-	2.d\	pro-	2.D/	pro-	2.A/	p(ro)-	2.d\	pro-	2.f\	pro-	1D	ti-	1f#X	ti-	1a	ti-	1dd	ti-
.	.	4A/	-pter	4d\	-pter	4D/	-pter	4A/	-pter	4d\	-pter	4f\	-pter	.	.	.	.	.	.	.	.
!	!	!	!	!	!	!	!	!	!	!	!	!	!	!	!	!LO:SIC:v:s=2f\	!	!	!	!	!
!LO:TX:t=P:problem=kreska pseudotaktowa	!	!	!	!	!	!	!	!	!	!	!	!	!	!	!	!LO:TX:t=P:problem=kreska pseudotaktowa	!	!	!	!LO:TX:t=P:problem=kreska pseudotaktowa	!
2D/	.	4A/	mag-	4d\	mag-	4D/	(ma)-	4A/	mag-	4d\	Mag-	4f\	mag-	2D/	-bi	2f#\	-bi	2a\	-bi	2dd\	-bi
!	!	!	!	!	!	!LO:TX:t=P:problem=kreska pseudotaktowa	!	!	!	!LO:TX:t=P:problem=kreska pseudotaktowa	!	!LO:TX:t=P:problem=kreska pseudotaktowa	!	!	!	!	!	!	!	!	!
.	.	4d\	-na(m)	4d\	-na(m)	4D/	-gna(m)	4d\	-na(m)	4d\	-na(m)	4a\	-na(m)	.	.	.	.	.	.	.	.
!	!	!LO:LB:g=original	!	!	!	!LO:LB:g=original	!	!LO:LB:g=original	!	!LO:LB:g=original	!	!	!	!	!	!	!	!	!	!	!
=21-	=21-	=21-	=21-	=21-	=21-	=21-	=21-	=21-	=21-	=21-	=21-	=21-	=21-	=21-	=21-	=21-	=21-	=21-	=21-	=21-	=21-
1GG	.	2.B\	glo-	2.d\	glo-	2.GG/	glo-	2.B\	glo-	2.d\	glo-	2.g\	glo-	2.G/	p(ro)-	2.g\	p(ro)-	2.b\	p(ro)-	2.dd\	p(ro)-
.	.	4B\	-ri-	4d\	-ri-	4GG/	-ri-	4B\	-ri-	4d\	-ri-	4g\	-ri-	4G/	-pter	4g\	-pter	4b\	-pter	4dd\	-pter
!	!	!	!	!	!	!LO:TX:t=P:problem=kreska pseudotaktowa	!	!LO:TX:t=P:problem=kreska pseudotaktowa	!	!LO:TX:t=P:problem=kreska pseudotaktowa	!	!LO:TX:t=P:problem=kreska pseudotaktowa	!	!	!	!	!	!	!	!	!
2GG/	.	2B\	-am	2d\	-am	2GG/	-am	2B\	-am	2d\	-am	2g\	-a(m)	4G/	Mag-	4g\	mag-	4b\	mag-	4dd\	Mag-
!	!	!	!	!	!	!	!	!	!	!	!	!	!	!LO:TX:t=P:problem=kreska pseudotaktowa	!	!LO:TX:t=P:problem=kreska pseudotaktowa	!	!LO:TX:t=P:problem=kreska pseudotaktowa	!	!LO:TX:t=P:problem=kreska pseudotaktowa	!
.	.	.	.	.	.	.	.	.	.	.	.	.	.	4G/	-nam	4g\	-nam	4b\	-na(m)	4dd\	-na(m)
!LO:LB:g=original	!	!	!	!LO:LB:g=original	!	!	!	!	!	!	!	!	!	!	!	!	!	!	!	!	!
=22-	=22-	=22-	=22-	=22-	=22-	=22-	=22-	=22-	=22-	=22-	=22-	=22-	=22-	=22-	=22-	=22-	=22-	=22-	=22-	=22-	=22-
1.D	.	[1.A	tu-	4d\	glo-	1.D	tu-	1.A	tu-	4d\	glo-	1f	tu-	2.D/	glo-	2.a\	glo-	2.dd\	glo-	2.ff\	glo-
.	.	.	.	4e\	.	.	.	.	.	4e\	.	.	.	.	.	.	.	.	.	.	.
.	.	.	.	2f\	.	.	.	.	.	2f\	.	.	.	.	.	.	.	.	.	.	.
.	.	.	.	.	.	.	.	.	.	.	.	.	.	4D/	-ri-	4a\	-ri-	4dd\	-ri-	4ff\	-ri-
!	!	!	!	!	!	!	!	!	!	!LO:TX:t=P:problem=kreska pseudotaktowa	!	!	!	!LO:TX:t=P:problem=kreska pseudotaktowa	!	!LO:TX:t=P:problem=kreska pseudotaktowa	!	!	!	!	!
*	*	*	*	*	*	*	*	*	*	*	*	*	*	*	*	*	*	*col	*	*	*
!	!	!	!	!	!	!	!	!	!	!	!	!	!	!	!	!	!	!	!	!LO:TX:t=P:problem=kreska pseudotaktowa	!
.	.	.	.	2d\	-ri-	.	.	.	.	2d\	-ri-	2.a\	.	2D/	-am	2a\	-am	1dd\	-a(m)	2ff\	-a(m)
!	!	!	!	!	!	!	!	!	!	!	!	!	!	!LO:LB:g=original	!	!LO:LB:g=original	!	!	!	!	!
=23-	=23-	=23-	=23-	=23-	=23-	=23-	=23-	=23-	=23-	=23-	=23-	=23-	=23-	=23-	=23-	=23-	=23-	=23-	=23-	=23-	=23-
1.AA	4 #	1.A]	.	1e	-am	1.AA	.	1.A	.	1e	-am	.	.	1.A	tu-	1.a	tu-	.	.	1.ee	tu-
.	.	.	.	.	.	.	.	.	.	.	.	8g\L	.	.	.	.	.	.	.	.	.
.	.	.	.	.	.	.	.	.	.	.	.	8f\J	.	.	.	.	.	.	.	.	.
!	!	!	!	!	!	!	!	!	!	!	!	!	!	!	!	!	!	!LO:TX:t=P:problem=kreska pseudotaktowa	!	!	!
.	3	.	.	.	.	.	.	.	.	.	.	1e	.	.	.	.	.	1cc#X	tu-	.	.
.	.	.	.	2.A\	tu-	.	.	.	.	2.A\	tu-	.	.	.	.	.	.	.	.	.	.
*	*	*	*	*	*	*	*	*	*	*	*	*	*	*	*	*	*	*Xcol	*	*	*
=24-	=24-	=24-	=24-	=24-	=24-	=24-	=24-	=24-	=24-	=24-	=24-	=24-	=24-	=24-	=24-	=24-	=24-	=24-	=24-	=24-	=24-
!	!	!	!	!	!	!	!	!	!	!	!	!LO:TX:t=P:problem=kreska pseudotaktowa	!	!	!	!	!	!	!	!	!
!LO:TX:t=P:problem=kreska pseudotaktowa	!	!	!	!	!	!LO:TX:t=P:problem=kreska pseudotaktowa	!	!LO:TX:t=P:problem=kreska pseudotaktowa	!	!	!	!LO:TX:b:t=P:problem=# below	!	!LO:TX:t=P:problem=kreska pseudotaktowa	!	!LO:TX:t=P:problem=kreska pseudotaktowa	!	!	!	!LO:TX:t=P:problem=kreska pseudotaktowa	!
1.D	.	1.A	-am	.	.	1.D	-am	1.A	-am	.	.	1.f#X;<	-am	1.D	-am	1.f#X	-am	1dd	-am	1.dd	-am
.	.	.	.	8B\L	.	.	.	.	.	8B\L	.	.	.	.	.	.	.	.	.	.	.
.	.	.	.	8c\J	.	.	.	.	.	8c\J	.	.	.	.	.	.	.	.	.	.	.
.	.	.	.	[<2d\	-am	.	.	.	.	2d\	.	.	.	.	.	.	.	.	.	.	.
!	!	!	!	!	!	!	!	!	!	!LO:TX:t=P:problem=kreska pseudotaktowa	!	!	!	!	!	!	!	!LO:TX:t=P:problem=kreska pseudotaktowa	!	!	!
.	.	.	.	2d\]	.	.	.	.	.	2d\	-am	.	.	.	.	.	.	2r	.	.	.
*clefC4	*	*	*	*	*	*	*	*	*	*	*	*	*	*	*	*	*	*	*	*	*
=25-	=25-	=25-	=25-	=25-	=25-	=25-	=25-	=25-	=25-	=25-	=25-	=25-	=25-	=25-	=25-	=25-	=25-	=25-	=25-	=25-	=25-
!LO:TX:b:i:t=a4.	!	!	!	!	!	!	!	!	!	!	!	!	!	!	!	!LO:TX:t=P:problem=♮ above	!	!LO:TX:a:t=I	!	!	!
2d\	-	00.r	.	00.r	.	00.r	.	00.r	.	00.r	.	00.r	.	2d\	Do-	2fn\	Do-	1.r	.	1.r	.
4d\	.	.	.	.	.	.	.	.	.	.	.	.	.	4d\	-mi-	4f\	-mi-	.	.	.	.
4d\	.	.	.	.	.	.	.	.	.	.	.	.	.	4d\	-ne	4f\	-ne	.	.	.	.
4c\	.	.	.	.	.	.	.	.	.	.	.	.	.	4c\	DE-	4e\	DE-	.	.	.	.
!	!	!	!	!	!	!	!	!	!	!	!	!	!	!LO:TX:t=P:problem=kreska pseudotaktowa	!	!	!	!	!	!	!
!LO:TX:t=P:problem=kreska pseudotaktowa	!	!	!	!	!	!	!	!	!	!	!	!	!	!LO:TX:t=P:problem=♮ above	!	!LO:TX:t=P:problem=kreska pseudotaktowa	!	!	!	!	!
4Bn\	.	.	.	.	.	.	.	.	.	.	.	.	.	4Bn\	-us	4d\	-us	.	.	.	.
=26-	=26-	=26-	=26-	=26-	=26-	=26-	=26-	=26-	=26-	=26-	=26-	=26-	=26-	=26-	=26-	=26-	=26-	=26-	=26-	=26-	=26-
1A	.	.	.	.	.	.	.	.	.	.	.	.	.	1A	Rex	1cny	Rex	2a\	Do-	2cc\	Do-
.	.	.	.	.	.	.	.	.	.	.	.	.	.	.	.	.	.	4a\	-(mi)-	4cc\	-(mi)-
.	.	.	.	.	.	.	.	.	.	.	.	.	.	.	.	.	.	4a\	-ne	4cc\	-ne
!LO:TX:t=P:problem=kreska pseudotaktowa	!	!	!	!	!	!	!	!	!	!	!	!	!	!LO:TX:t=P:problem=kreska pseudotaktowa	!	!	!	!	!	!LO:LB:g=original	!
2Bn\	.	.	.	.	.	.	.	.	.	.	.	.	.	2Bn\	Cae-	2d\	Cae-	4g/	De-	4bn\	De-
!	!	!	!	!	!	!	!	!	!	!	!	!	!	!	!	!	!	!LO:TX:t=P:problem=kreska pseudotaktowa	!	!LO:TX:t=P:problem=kreska pseudotaktowa	!
.	.	.	.	.	.	.	.	.	.	.	.	.	.	.	.	.	.	4f/	-(us)	4a\	-us
=27-	=27-	=27-	=27-	=27-	=27-	=27-	=27-	=27-	=27-	=27-	=27-	=27-	=27-	=27-	=27-	=27-	=27-	=27-	=27-	=27-	=27-
2.c\	.	.	.	.	.	.	.	.	.	.	.	.	.	2.c\	-le-	4g\	-le-	1e	Rex	1g	Rex
!	!	!	!	!	!	!	!	!	!	!	!	!	!	!	!	!LO:TX:t=P:problem=# above	!	!	!	!	!
.	.	.	.	.	.	.	.	.	.	.	.	.	.	.	.	4f#X\	.	.	.	.	.
.	.	.	.	.	.	.	.	.	.	.	.	.	.	.	.	4e\	.	.	.	.	.
4B\	.	.	.	.	.	.	.	.	.	.	.	.	.	4B\	.	4d\	.	.	.	.	.
!LO:TX:t=P:problem=kreska pseudotaktowa	!	!	!	!	!	!	!	!	!	!	!	!	!	!LO:TX:t=P:problem=kreska pseudotaktowa	!	!LO:TX:t=P:problem=kreska pseudotaktowa	!	!	!	!	!
2A/	6 #	.	.	.	.	.	.	.	.	.	.	.	.	2A\	.	2c/	.	2f/	Cae-	2a\	Cae-
!	!	!	!	!	!	!	!	!	!	!	!	!	!	!	!	!	!	!LO:LB:g=original	!	!	!
=28-	=28-	=28-	=28-	=28-	=28-	=28-	=28-	=28-	=28-	=28-	=28-	=28-	=28-	=28-	=28-	=28-	=28-	=28-	=28-	=28-	=28-
2.G\	.	.	.	.	.	.	.	.	.	.	.	.	.	2.G/	.	2d\	.	4g\	-le-	4b\	-le-
.	.	.	.	.	.	.	.	.	.	.	.	.	.	.	.	.	.	4a\	.	4cc\	.
.	.	.	.	.	.	.	.	.	.	.	.	.	.	.	.	2g\	.	4b\	.	4dd\	.
4A\	.	.	.	.	.	.	.	.	.	.	.	.	.	4A/	.	.	.	4ccny\	.	4cc\	.
!	!	!	!	!	!	!	!	!	!	!	!	!	!	!LO:TX:t=P:problem=kreska pseudotaktowa	!	!	!	!LO:TX:t=P:problem=kreska pseudotaktowa	!	!LO:TX:t=P:problem=kreska pseudotaktowa	!
2B\	.	.	.	.	.	.	.	.	.	.	.	.	.	2B\	.	2g\	.	2dd\	.	2b\	.
=29-	=29-	=29-	=29-	=29-	=29-	=29-	=29-	=29-	=29-	=29-	=29-	=29-	=29-	=29-	=29-	=29-	=29-	=29-	=29-	=29-	=29-
!	!	!	!	!	!	!	!	!	!	!LO:TX:t=P:problem=kreska pseudotaktowa	!	!	!	!	!	!	!	!	!	!	!
2c\	.	2r	.	1.r	.	1.r	.	2r	.	1.r	.	0.r	.	2c\	.	1g	.	4cc\	.	2ee\	.
.	.	.	.	.	.	.	.	.	.	.	.	.	.	.	.	.	.	4b\	.	.	.
!	!	!	!	!	!	!	!	!	!	!	!	!	!	!	!	!	!	!LO:TX:t=P:problem=kreska pseudotaktowa	!	!	!
1d	4	2D/	De-	.	.	.	.	2D/	De-	.	.	.	.	1d	.	.	.	1a	.	1dd	.
!	!	!	!	!	!	!	!	!LO:TX:t=P:problem=kreska pseudotaktowa	!	!	!	!	!	!	!	!	!	!	!	!	!
.	3	2D/	-us	.	.	.	.	2D/	-us	.	.	.	.	.	.	2f#X\	.	.	.	.	.
*clefF4	*	*	*	*	*	*	*	*	*	*	*	*	*	*	*	*	*	*	*	*	*
=30-	=30-	=30-	=30-	=30-	=30-	=30-	=30-	=30-	=30-	=30-	=30-	=30-	=30-	=30-	=30-	=30-	=30-	=30-	=30-	=30-	=30-
!LO:TX:b:i:t=DEus Pr omnipotens	!	!	!	!	!	!	!	!	!	!	!	!LO:TX:t=P:problem=kreska pseudotaktowa	!	!	!	!	!	!	!	!	!
!LO:TX:a:i:t=T.	!	!	!	!	!	!	!	!	!	!	!	!	!	!LO:TX:t=P:problem=kreska pseudotaktowa	!	!LO:TX:t=P:problem=kreska pseudotaktowa	!	!LO:TX:t=P:problem=kreska pseudotaktowa	!	!LO:TX:t=P:problem=kreska pseudotaktowa	!
1GG	.	1G	pa-	2r	.	2r	.	1G	Pa-	2r	.	.	.	1.G	-ſtis	1.g	-stis	1.b	-ſtis	1.dd	-stis
.	.	.	.	2B\	DE-	2GG/	De-	.	.	2B\	DE-	.	.	.	.	.	.	.	.	.	.
!	!	!	!	!	!	!LO:TX:t=P:problem=kreska pseudotaktowa	!	!LO:TX:t=P:problem=kreska pseudotaktowa	!	!LO:TX:t=P:problem=kreska pseudotaktowa	!	!	!	!	!	!	!	!	!	!	!
2GG/	.	2G/	-ter	2B\	-us	2GG/	-us	2G/	-ter	2B\	-us	.	.	.	.	.	.	.	.	.	.
=31-	=31-	=31-	=31-	=31-	=31-	=31-	=31-	=31-	=31-	=31-	=31-	=31-	=31-	=31-	=31-	=31-	=31-	=31-	=31-	=31-	=31-
2C/	.	2E/	o-	2e\	pa-	2C/	pa-	2E/	o-	2e\	Pa-	2r	.	00.r	.	00.r	.	00.r	.	00.r	.
2C/	.	2.A/	-mni-	2e\	-ter	2C/	-ter	2.A/	-mni-	2e\	-ter	2c/	De-	.	.	.	.	.	.	.	.
!	!	!	!	!	!	!	!	!	!	!LO:TX:t=P:problem=kreska pseudotaktowa	!	!LO:TX:t=P:problem=kreska pseudotaktowa	!	!	!	!	!	!	!	!	!
2AA/	.	.	.	2c\	o-	2AA/	o-	.	.	2c\	o-	2c/	-us	.	.	.	.	.	.	.	.
!	!	!	!	!	!	!	!	!LO:TX:t=P:problem=kreska pseudotaktowa	!	!	!	!	!	!	!	!	!	!	!	!	!
.	.	4A/	-po-	.	.	.	.	4A/	-po-	.	.	.	.	.	.	.	.	.	.	.	.
=32-	=32-	=32-	=32-	=32-	=32-	=32-	=32-	=32-	=32-	=32-	=32-	=32-	=32-	=32-	=32-	=32-	=32-	=32-	=32-	=32-	=32-
2.D/	.	1A	-tens	2.d\	-mni-	2.D/	-mni-	1A	-tens	2.d\	-mni-	2fny\	Pa-	.	.	.	.	.	.	.	.
.	.	.	.	.	.	.	.	.	.	.	.	2f\	-ter	.	.	.	.	.	.	.	.
4C/	.	.	.	4A\	-po-	4C/	-po-	.	.	4A\	-po-	.	.	.	.	.	.	.	.	.	.
!LO:TX:t=P:problem=kreska pseudotaktowa	!	!	!	!	!	!LO:TX:t=P:problem=kreska pseudotaktowa	!	!	!	!LO:TX:t=P:problem=kreska pseudotaktowa	!	!LO:TX:t=P:problem=kreska pseudotaktowa	!	!	!	!	!	!	!	!	!
2BB/	.	2.G/	o-	2B\	-tens	2BBn/	-tens	2.G/	o-	2B\	-tens	2d\	o-	.	.	.	.	.	.	.	.
=33-	=33-	=33-	=33-	=33-	=33-	=33-	=33-	=33-	=33-	=33-	=33-	=33-	=33-	=33-	=33-	=33-	=33-	=33-	=33-	=33-	=33-
*	*	*	*	*	*	*2\right	*	*	*	*	*	*	*	*	*	*	*	*	*	*	*
2.E\	.	.	.	2B\	o-	2.E\	o-	.	.	2B\	o-	2.g\	-mni-	.	.	.	.	.	.	.	.
.	.	4A/	.	.	.	.	.	4A/	.	.	.	.	.	.	.	.	.	.	.	.	.
.	.	2B\	.	2.e\	.	.	.	2B\	.	2.e\	.	.	.	.	.	.	.	.	.	.	.
4D\	.	.	.	.	.	4D/	.	.	.	.	.	4f\	.	.	.	.	.	.	.	.	.
!	!	!	!	!	!	!LO:TX:t=P:problem=kreska pseudotaktowa	!	!LO:TX:t=P:problem=kreska pseudotaktowa	!	!	!	!LO:TX:t=P:problem=kreska pseudotaktowa	!	!	!	!	!	!	!	!	!
2C/	.	2c\	.	.	.	2C/	.	2c\	.	.	.	2e\	.	.	.	.	.	.	.	.	.
.	.	.	.	4d\	.	.	.	.	.	4d\	.	.	.	.	.	.	.	.	.	.	.
!LO:LB:g=original	!	!	!	!	!	!	!	!	!	!	!	!	!	!	!	!	!	!	!	!	!
=34-	=34-	=34-	=34-	=34-	=34-	=34-	=34-	=34-	=34-	=34-	=34-	=34-	=34-	=34-	=34-	=34-	=34-	=34-	=34-	=34-	=34-
2FF/	.	2A/	.	1c	-mni-	2FF/	.	2A/	.	1c	-mni-	2f\	.	.	.	.	.	.	.	.	.
!LO:TX:t=P:problem=kreska pseudotaktowa	!	!	!	!	!	!	!	!	!	!	!	!	!	!	!	!	!	!	!	!	!
1GG	4	2.G/	-mni-	.	.	2.GG/	-mni-	2.G/	-mni-	.	.	2.d\	.	.	.	.	.	.	.	.	.
.	3	.	.	2B\	-po-	.	.	.	.	2B\	-po-	.	.	.	.	.	.	.	.	.	.
!	!	!	!	!	!	!	!	!LO:TX:t=P:problem=kreska pseudotaktowa	!	!	!	!	!	!	!	!	!	!	!	!	!
.	.	4G/	-po-	.	.	4GG/	po-	4G/	-po-	.	.	4d\	-po-	.	.	.	.	.	.	.	.
=35-	=35-	=35-	=35-	=35-	=35-	=35-	=35-	=35-	=35-	=35-	=35-	=35-	=35-	=35-	=35-	=35-	=35-	=35-	=35-	=35-	=35-
!	!	!	!	!	!	!	!	!	!	!	!	!	!	!LO:TX:t=P:problem=kreska pseudotaktowa	!	!LO:TX:t=P:problem=kreska pseudotaktowa	!	!	!	!	!
1C	.	1G	-tens	1c	-tens	1C	-tens	1G	-tens	1c	-tens	1e	-tens	1.r	.	0.r	.	2e/	Do-	2g\	Do-
.	.	.	.	.	.	.	.	.	.	.	.	.	.	.	.	.	.	4e/	-mi-	4g\	-mi-
.	.	.	.	.	.	.	.	.	.	.	.	.	.	.	.	.	.	4e/	-ne	4g\	-ne
!LO:TX:b:i:t=a 4.	!	!	!	!	!	!LO:TX:t=P:problem=kreska pseudotaktowa	!	!LO:TX:t=P:problem=kreska pseudotaktowa	!	!LO:TX:t=P:problem=kreska pseudotaktowa	!	!LO:TX:t=P:problem=kreska pseudotaktowa	!	!	!	!	!	!	!	!	!
2AA/	6	2r	.	2r	.	2r	.	2r	.	2r	.	2r	.	.	.	.	.	4f#X/	Fi-	4a\	fi-
!	!	!	!	!	!	!	!	!	!	!	!	!	!	!	!	!	!	!LO:TX:t=P:problem=kreska pseudotaktowa	!	!LO:TX:t=P:problem=kreska pseudotaktowa	!
.	.	.	.	.	.	.	.	.	.	.	.	.	.	.	.	.	.	4f#/	-li	4a\	-li
!	!	!	!	!	!	!	!	!	!	!LO:LB:g=original	!	!	!	!	!	!	!	!	!	!	!
=36-	=36-	=36-	=36-	=36-	=36-	=36-	=36-	=36-	=36-	=36-	=36-	=36-	=36-	=36-	=36-	=36-	=36-	=36-	=36-	=36-	=36-
!	!	!	!	!	!	!	!	!	!	!	!	!	!	!	!	!LO:TX:t=P:problem=kreska pseudotaktowa	!	!	!	!	!
2GG/	.	00.r	.	00.r	.	00.r	.	00.r	.	00.r	.	00.r	.	2G/	Do-	.	.	1g	u-	1b	V-
*clefC4	*	*	*	*	*	*	*	*	*	*	*	*	*	*	*	*	*	*	*	*	*
2G/	.	.	.	.	.	.	.	.	.	.	.	.	.	4G/	-mi-	.	.	.	.	.	.
.	.	.	.	.	.	.	.	.	.	.	.	.	.	4G/	-ne	.	.	.	.	.	.
!LO:TX:t=P:problem=kreska pseudotaktowa	!	!	!	!	!	!	!	!	!	!	!	!	!	!	!	!	!	!LO:TX:t=P:problem=kreska pseudotaktowa	!	!	!
2A/	#	.	.	.	.	.	.	.	.	.	.	.	.	4A/	Fi-	.	.	2e/	-ni-	2cc\	-ni-
!	!	!	!	!	!	!	!	!	!	!	!	!	!	!LO:TX:t=P:problem=kreska pseudotaktowa	!	!	!	!	!	!	!
.	.	.	.	.	.	.	.	.	.	.	.	.	.	4A/	-li	.	.	.	.	.	.
=37-	=37-	=37-	=37-	=37-	=37-	=37-	=37-	=37-	=37-	=37-	=37-	=37-	=37-	=37-	=37-	=37-	=37-	=37-	=37-	=37-	=37-
!	!	!	!	!	!	!	!	!	!	!	!	!	!	!LO:TX:t=P:problem=♮ above	!	!	!	!	!	!	!
1B	.	.	.	.	.	.	.	.	.	.	.	.	.	1Bn	V-	2d\	Do-	4b\	-ge-	4dd\	-ge-
.	.	.	.	.	.	.	.	.	.	.	.	.	.	.	.	.	.	4cc\	.	4cc\	.
.	.	.	.	.	.	.	.	.	.	.	.	.	.	.	.	4d\	-mi-	4dd\	.	4b\	.
.	.	.	.	.	.	.	.	.	.	.	.	.	.	.	.	4d\	-ne	4b\	.	4dd\	.
!	!	!	!	!	!	!	!	!	!	!	!	!	!	!	!	!	!	!LO:TX:t=P:problem=kreska pseudotaktowa	!	!	!
2c\	.	.	.	.	.	.	.	.	.	.	.	.	.	2c\	-ni-	4e\	Fi-	2ee\	.	4cc\	.
!	!	!	!	!	!	!	!	!	!	!	!	!	!	!	!	!LO:TX:t=P:problem=kreska pseudotaktowa	!	!	!	!LO:TX:t=P:problem=kreska pseudotaktowa	!
.	.	.	.	.	.	.	.	.	.	.	.	.	.	.	.	4e\	-li	.	.	4b\	.
=38-	=38-	=38-	=38-	=38-	=38-	=38-	=38-	=38-	=38-	=38-	=38-	=38-	=38-	=38-	=38-	=38-	=38-	=38-	=38-	=38-	=38-
2.d\	.	.	.	.	.	.	.	.	.	.	.	.	.	2.d\	-ge-	1fny	V-	1.dd	.	1a	.
4c\	.	.	.	.	.	.	.	.	.	.	.	.	.	4c\	.	.	.	.	.	.	.
!LO:TX:t=P:problem=kreska pseudotaktowa	!	!	!	!	!	!	!	!	!	!	!	!	!	!LO:TX:t=P:problem=kreska pseudotaktowa	!	!	!	!	!	!	!
2B\	.	.	.	.	.	.	.	.	.	.	.	.	.	2B\	.	2g\	-ni-	.	.	2b\	.
!	!	!	!	!	!	!	!	!	!	!	!	!	!	!LO:LB:g=original	!	!LO:LB:g=original	!	!	!	!	!
=39-	=39-	=39-	=39-	=39-	=39-	=39-	=39-	=39-	=39-	=39-	=39-	=39-	=39-	=39-	=39-	=39-	=39-	=39-	=39-	=39-	=39-
2A\	.	.	.	.	.	.	.	.	.	.	.	.	.	2A/	.	1a	-ge-	2cc\	.	1ee	.
1e	4	.	.	.	.	.	.	.	.	.	.	.	.	2.e\	.	.	.	2.b\	.	.	.
!	!	!	!	!	!	!	!	!	!	!	!	!	!	!	!	!LO:TX:t=P:problem=kreska pseudotaktowa	!	!	!	!	!
.	.	.	.	.	.	.	.	.	.	.	.	.	.	.	.	2g\	-ni-	.	.	2ee\	-ni-
!	!	!	!	!	!	!	!	!	!	!	!	!	!	!	!	!	!	!LO:TX:t=P:problem=kreska pseudotaktowa	!	!	!
.	.	.	.	.	.	.	.	.	.	.	.	.	.	4e\	-ni-	.	.	4b\	ni-	.	.
=40-	=40-	=40-	=40-	=40-	=40-	=40-	=40-	=40-	=40-	=40-	=40-	=40-	=40-	=40-	=40-	=40-	=40-	=40-	=40-	=40-	=40-
!	!	!	!	!	!	!LO:TX:t=P:problem=kreska pseudotaktowa	!	!LO:TX:t=P:problem=kreska pseudotaktowa	!	!LO:TX:t=P:problem=kreska pseudotaktowa	!	!LO:TX:t=P:problem=kreska pseudotaktowa	!	!LO:TX:t=P:problem=kreska pseudotaktowa	!	!	!	!LO:TX:t=P:problem=kreska pseudotaktowa	!	!LO:TX:t=P:problem=kreska pseudotaktowa	!
1.A	.	1.r	.	1.r	.	1.r	.	1.r	.	1.r	.	1.r	.	1.A	-te	1a	-te	1.cc#X	-te	1.ee	-te
.	.	.	.	.	.	.	.	.	.	.	.	.	.	.	.	2.a\	Je-	.	.	.	.
*clefF4	*	*	*	*	*	*	*	*	*	*	*	*	*	*	*	*	*	*	*	*	*
!	!	!LO:LB:g=original	!	!	!	!	!	!LO:LB:g=original	!	!	!	!LO:LB:g=original	!	!	!	!	!	!	!	!	!
=41-	=41-	=41-	=41-	=41-	=41-	=41-	=41-	=41-	=41-	=41-	=41-	=41-	=41-	=41-	=41-	=41-	=41-	=41-	=41-	=41-	=41-
!LO:TX:b:i:t=T.\nJeſu Chriſte	!	!	!	!	!	!	!	!	!	!	!	!	!	!	!	!	!	!	!	!	!
1FF	.	1A	Je-	1c	Je-	1FF	Je-	1A	Je-	1c	Je-	2f\	Je-	1F	Je-	.	.	1ccny	Je-	2.a\	Je-
.	.	.	.	.	.	.	.	.	.	.	.	.	.	.	.	4g\	.	.	.	.	.
.	.	.	.	.	.	.	.	.	.	.	.	2.c\	-su	.	.	2f\	.	.	.	.	.
.	.	.	.	.	.	.	.	.	.	.	.	.	.	.	.	.	.	.	.	4b\	.
!	!	!	!	!	!	!LO:TX:t=P:problem=kreska pseudotaktowa	!	!LO:TX:t=P:problem=kreska pseudotaktowa	!	!	!	!	!	!	!	!LO:TX:t=P:problem=kreska pseudotaktowa	!	!	!	!LO:LB:g=original	!
*	*	*	*	*	*	*	*	*	*	*	*	*	*	*	*	*	*	*	*	*col	*
2EE/	6	2G/	-su	2c\	-ſu	2EE/	-su	2G/	-su	2c\	-ſu	.	.	2c\	-ſu	2g\	-ſu	2ee\	-ſu	1cc\	-ſu
!	!	!	!	!	!	!	!	!	!	!	!	!LO:TX:t=P:problem=kreska pseudotaktowa	!	!	!	!	!	!	!	!	!
.	.	.	.	.	.	.	.	.	.	.	.	4g\	Chri-	.	.	.	.	.	.	.	.
=42-	=42-	=42-	=42-	=42-	=42-	=42-	=42-	=42-	=42-	=42-	=42-	=42-	=42-	=42-	=42-	=42-	=42-	=42-	=42-	=42-	=42-
!LO:TX:b:i:t=D(omi)ne DE(us)	!	!	!	!LO:N:vis=1	!	!LO:TX:t=P:problem=kreska pseudotaktowa	!	!	!	!	!	!	!	!	!	!	!	!	!	!	!
1.GG	4	4G/	CHri-	1.d	Chri-	1.GG	Chri-	4G/	Chri-	1.d	Chri-	4g\	.	1.G	Chri-	1.g	Chri-	1.dd	Chri-	.	.
.	.	4A/	.	.	.	.	.	4A/	.	.	.	8f\L	.	.	.	.	.	.	.	.	.
.	.	.	.	.	.	.	.	.	.	.	.	8e\J	.	.	.	.	.	.	.	.	.
.	3	4B\	.	.	.	.	.	4B\	.	.	.	2d\	.	.	.	.	.	.	.	1b	Chri-
.	.	4c\	.	.	.	.	.	4c\	.	.	.	.	.	.	.	.	.	.	.	.	.
.	.	2B\	.	.	.	.	.	2B\	.	.	.	2g\	.	.	.	.	.	.	.	.	.
*	*	*	*	*	*	*	*	*	*	*	*	*	*	*	*	*	*	*	*	*Xcol	*
!	!	!	!	!	!	!LO:LB:g=original	!	!LO:TX:t=P:problem=kreska pseudotaktowa	!	!	!	!	!	!	!	!	!	!	!	!	!
=43-	=43-	=43-	=43-	=43-	=43-	=43-	=43-	=43-	=43-	=43-	=43-	=43-	=43-	=43-	=43-	=43-	=43-	=43-	=43-	=43-	=43-
!LO:TX:t=P:problem=kreska pseudotaktowa	!	!	!	!	!	!	!	!LO:TX:t=P:problem=kreska pseudotaktowa	!	!LO:TX:t=P:problem=kreska pseudotaktowa	!	!LO:TX:t=P:problem=kreska pseudotaktowa	!	!LO:TX:t=P:problem=kreska pseudotaktowa	!	!LO:TX:t=P:problem=kreska pseudotaktowa	!	!LO:TX:t=P:problem=kreska pseudotaktowa	!	!LO:TX:t=P:problem=kreska pseudotaktowa	!
1.C	.	1.G	-ste	1.c	-ſte	1.C	-ste	1.G	-ste	1.c	-ſte	1.e	-ste	1.C	-ſte	1.g	-ſte	1.ee	-ſte	1.cc	-ſte
!	!	!	!	!LO:LB:g=original	!LO:LB:g=original	!	!	!	!	!	!	!	!	!	!	!	!	!LO:LB:g=original	!	!	!
=44-	=44-	=44-	=44-	=44-	=44-	=44-	=44-	=44-	=44-	=44-	=44-	=44-	=44-	=44-	=44-	=44-	=44-	=44-	=44-	=44-	=44-
2E\	.	2G/	D(o-	2r	.	2E\	Do-	2G/	D(o-	2r	.	1.r	.	0.r	.	0.r	.	0.r	.	1.r	.
4E\	.	4G/	-mi)-	2B\	D(o-	4E\	-mi-	4G/	-mi)-	2B\	Do-	.	.	.	.	.	.	.	.	.	.
4E\	.	4G/	-ne	.	.	4E\	-ne	4G/	-ne	.	.	.	.	.	.	.	.	.	.	.	.
!LO:TX:t=P:problem=kreska pseudotaktowa	!	!	!	!	!	!	!	!	!	!	!	!	!	!	!	!	!	!	!	!	!
2G\	.	4B\	De-	4B\	-mi)-	4G\	De-	4B\	De-	4B\	-mi-	.	.	.	.	.	.	.	.	.	.
!	!	!	!	!	!	!LO:TX:t=P:problem=kreska pseudotaktowa	!	!LO:TX:t=P:problem=kreska pseudotaktowa	!	!LO:TX:t=P:problem=kreska pseudotaktowa	!	!	!	!	!	!	!	!	!	!	!
.	.	4B\	-us	4B\	-ne	4G\	-us	4B\	-us	4B\	-ne	.	.	.	.	.	.	.	.	.	.
=45-	=45-	=45-	=45-	=45-	=45-	=45-	=45-	=45-	=45-	=45-	=45-	=45-	=45-	=45-	=45-	=45-	=45-	=45-	=45-	=45-	=45-
2D\	.	4A/	Ag-	4d\	De-	4D/	Ag-	4A/	Ag-	4d\	DE-	2f\	D(o-	.	.	.	.	.	.	2r	.
.	.	4A/	-nus	4d\	-us	4D/	-nus	4A/	-nus	4d\	-us	.	.	.	.	.	.	.	.	.	.
!LO:TX:t=P:problem=kreska pseudotaktowa	!	!	!	!	!	!LO:TX:t=P:problem=kreska pseudotaktowa	!	!LO:TX:t=P:problem=kreska pseudotaktowa	!	!	!	!	!	!	!	!	!	!	!	!	!
1F	.	1A	De-	4A\	ag-	1F	De-	1A	De-	4A\	Ag-	4f\	-mi)-	.	.	.	.	.	.	2ccn\	Do-
.	.	.	.	4A\	-nus	.	.	.	.	4A\	-nus	4f\	-ne	.	.	.	.	.	.	.	.
.	.	.	.	2c\	De-	.	.	.	.	2c\	De-	4a\	De-	.	.	.	.	.	.	4cc\	-mi-
!	!	!	!	!	!	!	!	!	!	!	!	!LO:TX:t=P:problem=kreska pseudotaktowa	!	!	!	!	!	!	!	!LO:TX:t=P:problem=kreska pseudotaktowa	!
.	.	.	.	.	.	.	.	.	.	.	.	4a\	-us	.	.	.	.	.	.	4cc\	-ne
=46-	=46-	=46-	=46-	=46-	=46-	=46-	=46-	=46-	=46-	=46-	=46-	=46-	=46-	=46-	=46-	=46-	=46-	=46-	=46-	=46-	=46-
!	!	!	!	!	!	!LO:TX:t=P:problem=kreska pseudotaktowa	!	!	!	!	!	!	!	!	!	!	!	!	!	!	!
1C	.	1G	-i	1c	-i	1.C	-i	1G	-i	1c	-i	4e\	Ag-	2c\	Do-	2e\	Do-	2r	.	2ee\	De-
.	.	.	.	.	.	.	.	.	.	.	.	4e\	-nus	.	.	.	.	.	.	.	.
.	.	.	.	.	.	.	.	.	.	.	.	2g\	De-	4c\	-mi-	4e\	-mi-	2g/	Do-	2ee\	-us
.	.	.	.	.	.	.	.	.	.	.	.	.	.	4c\	-ne	4e\	-ne	.	.	.	.
!	!	!	!	!	!	!	!	!LO:TX:t=P:problem=kreska pseudotaktowa	!	!LO:TX:t=P:problem=kreska pseudotaktowa	!	!LO:TX:t=P:problem=kreska pseudotaktowa	!	!	!	!	!	!	!	!	!
2E\	.	2r	.	2r	.	.	.	2r	.	2r	.	2e\	.	4e\	DE-	4g\	DE-	4g/	-mi-	4b\	Ag-
!	!	!	!	!	!	!	!	!	!	!	!	!	!	!LO:TX:t=P:problem=kreska pseudotaktowa	!	!LO:TX:t=P:problem=kreska pseudotaktowa	!	!LO:TX:t=P:problem=kreska pseudotaktowa	!	!LO:TX:t=P:problem=kreska pseudotaktowa	!
.	.	.	.	.	.	.	.	.	.	.	.	.	.	4e\	-(us)	4g\	-us	4g/	-ne	4b\	-nus
=47-	=47-	=47-	=47-	=47-	=47-	=47-	=47-	=47-	=47-	=47-	=47-	=47-	=47-	=47-	=47-	=47-	=47-	=47-	=47-	=47-	=47-
!	!	!	!	!	!	!	!	!	!	!LO:TX:t=P:problem=kreska pseudotaktowa	!	!	!	!	!	!	!	!	!	!	!
2BB/	.	1.r	.	1.r	.	1.r	.	1.r	.	1.r	.	2d\	-i	4B\	Ag-	4d\	Ag-	4b\	De-	1dd	De-
.	.	.	.	.	.	.	.	.	.	.	.	.	.	4B\	-nus	4d\	-nus	4b\	-(us)	.	.
!	!	!	!	!	!	!	!	!	!	!	!	!	!	!LO:TX:t=P:problem=kreska pseudotaktowa	!	!	!	!	!	!	!
1D	.	.	.	.	.	.	.	.	.	.	.	2r	.	1d	DE-	1f	DE-	2a\	Ag-	.	.
*	*	*	*	*	*	*	*	*	*	*	*	*	*ij	*	*	*	*	*	*	*	*
!	!	!	!	!	!	!	!	!	!	!	!	!LO:TX:t=P:problem=kreska pseudotaktowa	!	!	!	!	!	!LO:TX:t=P:problem=kreska pseudotaktowa	!	!	!
.	.	.	.	.	.	.	.	.	.	.	.	2f\	D(o-	.	.	.	.	2a\	-n(us)	2dd\	-i
!LO:PB:g=original	!	!	!	!	!	!	!	!	!	!	!	!	!	!	!	!	!	!	!	!	!
=48-	=48-	=48-	=48-	=48-	=48-	=48-	=48-	=48-	=48-	=48-	=48-	=48-	=48-	=48-	=48-	=48-	=48-	=48-	=48-	=48-	=48-
*	*	*	*	*	*	*	*ij	*	*	*	*	*	*	*	*	*	*	*	*	*	*
!LO:TX:b:i:t=D(omi)ne DE(us)	!	!	!	!	!	!	!	!	!	!	!	!	!	!	!	!LO:TX:t=P:problem=kreska pseudotaktowa	!	!	!	!LO:TX:t=P:problem=kreska pseudotaktowa	!
2F\	.	2r	.	2A/	D(o-	2F\	Do-	2r	.	2A/	D(o-	4f\	-mi)-	2A/	-i	1.c	-i	1cc	De-	1.r	.
.	.	.	.	.	.	.	.	.	.	.	.	4f\	-ne	.	.	.	.	.	.	.	.
*	*	*	*ij	*	*	*	*	*	*ij	*	*	*	*	*	*	*	*	*	*	*	*
4F\	.	2c\	D(o-	4A/	-mi)-	4F\	-mi-	2c\	D(o-	4A/	-mi)-	4a\	De-	2.c\	Fi-	.	.	.	.	.	.
4F\	.	.	.	4A/	-ne	4F\	-ne	.	.	4A/	-ne	4a\	-us	.	.	.	.	.	.	.	.
!LO:TX:t=P:problem=kreska pseudotaktowa	!	!	!	!	!	!	!	!	!	!	!	!	!	!	!	!	!	!LO:TX:t=P:problem=kreska pseudotaktowa	!	!	!
2A\	.	4c\	-mi)-	4c\	De-	4A\	De-	4c\	-mi)-	4c\	DE-	4e\	A-	.	.	.	.	2a\	-i	.	.
!	!	!	!	!	!	!LO:TX:t=P:problem=kreska pseudotaktowa	!	!LO:TX:t=P:problem=kreska pseudotaktowa	!	!LO:TX:t=P:problem=kreska pseudotaktowa	!	!LO:TX:t=P:problem=kreska pseudotaktowa	!	!LO:TX:t=P:problem=kreska pseudotaktowa	!	!	!	!	!	!	!
.	.	4c\	-ne	4c\	-us	4A\	-us	4c\	-ne	4c\	-us	4e\	-gnus	4c\	-li-	.	.	.	.	.	.
=49-	=49-	=49-	=49-	=49-	=49-	=49-	=49-	=49-	=49-	=49-	=49-	=49-	=49-	=49-	=49-	=49-	=49-	=49-	=49-	=49-	=49-
2E\	.	4e\	De-	1G	ag-	4E\	Ag-	4e\	De-	1G	Ag-	1g	De-	2B\	-us	2r	.	1.r	.	2b\	Fi-
.	.	4e\	-us	.	.	4E\	-nus	4e\	-us	.	.	.	.	.	.	.	.	.	.	.	.
2G\	.	4B\	A-	.	.	2G\	De-	4B\	Ag-	.	.	.	.	4G/	Pa-	2.g\	Fi-	.	.	4b\	-li-
.	.	4G/	-gnus	.	.	.	.	4G/	-nus	.	.	.	.	4A/	.	.	.	.	.	4b\	-us
!LO:TX:t=P:problem=kreska pseudotaktowa	!	!	!	!	!	!LO:TX:t=P:problem=kreska pseudotaktowa	!	!LO:TX:t=P:problem=kreska pseudotaktowa	!	!	!	!	!	!	!	!	!	!	!	!	!
2BB/	.	2d\	De-	2G/	-nus	2BB/	.	2d\	De-	2G/	-nus	2g\	-i	4B/	.	.	.	.	.	4dd\	Pa-
*	*	*	*	*	*	*	*	*	*	*	*	*	*Xij	*	*	*	*	*	*	*	*
!	!	!	!	!	!	!	!	!	!	!	!	!	!	!LO:TX:t=P:problem=kreska pseudotaktowa	!	!LO:TX:t=P:problem=kreska pseudotaktowa	!	!	!	!LO:TX:t=P:problem=kreska pseudotaktowa	!
.	.	.	.	.	.	.	.	.	.	.	.	.	.	4G/	.	4g\	-li-	.	.	4dd\	-tris
=50-	=50-	=50-	=50-	=50-	=50-	=50-	=50-	=50-	=50-	=50-	=50-	=50-	=50-	=50-	=50-	=50-	=50-	=50-	=50-	=50-	=50-
2D/	.	2.d\	-i	1A	De-	2D,/	-i	2.d\	-i	1A	DE-	2r	.	1d	.	2f\	-us	2fny/	Fi-	1a	.
*	*	*	*Xij	*	*	*	*Xij	*	*Xij	*	*	*	*	*	*	*	*	*	*	*	*
!LO:TX:b:i:t=Fili(us) Patris.	!	!	!	!	!	!	!	!	!	!	!	!	!	!	!	!	!	!	!	!	!
2.D/	.	.	.	.	.	2.D/	Fi-	.	.	.	.	2.f\	Fi-	.	.	4d\	Pa-	4f/	-li-	.	.
.	.	8c\L	.	.	.	.	.	8c\L	.	.	.	.	.	.	.	4e\	.	4f/	-us	.	.
.	.	8B\J	.	.	.	.	.	8B\J	.	.	.	.	.	.	.	.	.	.	.	.	.
!	!	!	!	!	!	!	!	!LO:TX:t=P:problem=kreska pseudotaktowa	!	!LO:TX:t=P:problem=kreska pseudotaktowa	!	!	!	!LO:TX:t=P:problem=kreska pseudotaktowa	!	!	!	!	!	!	!
.	.	2A/	.	2A/	-i	.	.	2A/	.	2A/	-i	.	.	2D/	-tris	4f\	.	4a\	P(a)-	2a\	Fi-
!LO:TX:t=P:problem=kreska pseudotaktowa	!	!	!	!	!	!LO:TX:t=P:problem=kreska pseudotaktowa	!	!	!	!	!	!LO:TX:t=P:problem=kreska pseudotaktowa	!	!	!	!LO:TX:t=P:problem=kreska pseudotaktowa	!	!LO:TX:t=P:problem=kreska pseudotaktowa	!	!	!
4D/	.	.	.	.	.	4D/	-li-	.	.	.	.	4f\	-li-	.	.	4d\	.	4a\	-tris	.	.
!	!	!LO:LB:g=original	!	!	!	!	!	!	!	!	!	!	!	!	!	!LO:LB:g=original	!	!	!	!	!
=51-	=51-	=51-	=51-	=51-	=51-	=51-	=51-	=51-	=51-	=51-	=51-	=51-	=51-	=51-	=51-	=51-	=51-	=51-	=51-	=51-	=51-
*	*	*	*	*	*	*	*	*	*	*	*	*	*	*	*	*	*	*	*ij	*	*
!	!	!LO:N:vis=1.	!	!	!	!	!	!	!	!	!	!	!	!	!	!	!	!	!	!	!
2C/	.	1c	fi-	2r	.	2C/	-us	1c	fi-	2r	.	2e\	-us	2r	.	1e	.	4e/	Fi-	4cc\	-li-
.	.	.	.	.	.	.	.	.	.	.	.	.	.	.	.	.	.	4e/	-li-	4cc\	-us
*	*	*	*	*	*	*	*	*	*	*	*	*	*	*	*	*	*	*	*	*	*ij
4AA/	.	.	.	2.A/	fi-	4AA/	Pa-	.	.	2.A/	Fi-	4c\	Pa-	2.A/	Fi-	.	.	2e/	-us	2.cc\	Fi-
4BB/	.	.	.	.	.	4BB/	.	.	.	.	.	4d\	.	.	.	.	.	.	.	.	.
!	!	!LO:TX:t=P:problem=kreska pseudotaktowa	!	!	!	!	!	!LO:TX:t=P:problem=kreska pseudotaktowa	!	!	!	!	!	!	!	!LO:TX:t=P:problem=kreska pseudotaktowa	!	!LO:TX:t=P:problem=kreska pseudotaktowa	!	!	!
4C/	.	2A/	-li-	.	.	4C/	.	2A/	-li-	.	.	4e\	.	.	.	2e\	-tris	2c/	P(a)-	.	.
!LO:TX:t=P:problem=kreska pseudotaktowa	!	!	!	!	!	!LO:TX:t=P:problem=kreska pseudotaktowa	!	!	!	!LO:TX:t=P:problem=kreska pseudotaktowa	!	!LO:TX:t=P:problem=kreska pseudotaktowa	!	!LO:TX:t=P:problem=kreska pseudotaktowa	!	!	!	!	!	!LO:TX:t=P:problem=kreska pseudotaktowa	!
4AA/	.	.	.	4A/	-li-	4AA/	.	.	.	4A/	-li-	4c\	.	4A/	-li-	.	.	.	.	4cc\	-li-
!	!	!	!	!	!	!	!	!	!	!LO:LB:g=original	!	!LO:LB:g=original	!	!	!	!	!	!	!	!	!
=52-	=52-	=52-	=52-	=52-	=52-	=52-	=52-	=52-	=52-	=52-	=52-	=52-	=52-	=52-	=52-	=52-	=52-	=52-	=52-	=52-	=52-
!	!	!	!	!	!	!	!	!LO:TX:t=P:problem=kreska pseudotaktowa	!	!	!	!	!	!	!	!	!	!	!	!	!
2.E\	.	1.B	-us	2G/	-us	2.E\	.	1.B	-us	2G/	-us	1g	.	2E/	-us	2.g\	Pa-	2e/	-tris	2b\	-us
*	*	*	*	*	*	*	*	*	*	*	*	*	*	*	*	*	*	*	*Xij	*	*Xij
.	.	.	.	2G/	pa-	.	.	.	.	2G/	Pa-	.	.	4E/	Pa-	.	.	2b\	Fi-	4g\	Pa-
8D/L	.	.	.	.	.	8D/L	.	.	.	.	.	.	.	4F/	.	8f\L	.	.	.	4a\	.
8C/J	.	.	.	.	.	8C/J	.	.	.	.	.	.	.	.	.	8e\J	.	.	.	.	.
!	!	!	!	!	!	!	!	!	!	!LO:TX:t=P:problem=kreska pseudotaktowa	!	!LO:TX:t=P:problem=kreska pseudotaktowa	!	!	!	!LO:TX:t=P:problem=kreska pseudotaktowa	!	!LO:TX:t=P:problem=kreska pseudotaktowa	!	!	!
2.BB/	.	.	.	2G/	-tris	2.BB/	.	.	.	2G/	-tris	2g\	-tris	4G/	.	2d\	.	2b\	-li-	4b\	.
!	!	!	!	!	!	!	!	!	!	!	!	!	!	!LO:TX:t=P:problem=kreska pseudotaktowa	!	!	!	!	!	!	!
.	.	.	.	.	.	.	.	.	.	.	.	.	.	4A/	.	.	.	.	.	4cc\	.
!	!	!	!	!	!	!	!	!	!	!	!	!	!	!LO:LB:g=original	!	!	!	!	!	!	!
=53-	=53-	=53-	=53-	=53-	=53-	=53-	=53-	=53-	=53-	=53-	=53-	=53-	=53-	=53-	=53-	=53-	=53-	=53-	=53-	=53-	=53-
!	!	!	!	!	!	!	!	!	!	!	!	!	!	!	!	!	!	!	!	!LO:TX:t=P:problem=kreska pseudotaktowa	!
.	.	2r	.	2r	.	.	.	2r	.	2r	.	2.d\	Pa-	4B\	.	1g	.	2b\	-us	1.dd	.
4C/	.	.	.	.	.	4C/	.	.	.	.	.	.	.	4G/	.	.	.	.	.	.	.
!LO:TX:t=P:problem=kreska pseudotaktowa	!	!	!	!	!	!	!	!	!	!	!	!	!	!	!	!	!	!LO:TX:t=P:problem=kreska pseudotaktowa	!	!	!
1D	4	2A/	Pa-	2.A/	pa-	1D	.	2A/	Pa-	(2.A/	Pa-	.	.	2d\	.	.	.	1a	Pa-	.	.
.	.	.	.	.	.	.	.	.	.	.	.	4e\	.	.	.	.	.	.	.	.	.
!	!	!	!	!	!	!	!	!LO:TX:t=P:problem=kreska pseudotaktowa, między nutą a kropką	!	!	!	!LO:TX:t=P:problem=kreska pseudotaktowa	!	!LO:TX:t=P:problem=kreska pseudotaktowa	!	!LO:TX:t=P:problem=kreska pseudotaktowa	!	!	!	!	!
.	3	2.D/	.	.	.	.	.	2.D/	.	.	.	2f#X\	.	2D/	.	2f#X\	.	.	.	.	.
.	.	.	.	4d\	.	.	.	.	.	4d\)	.	.	.	.	.	.	.	.	.	.	.
=54-	=54-	=54-	=54-	=54-	=54-	=54-	=54-	=54-	=54-	=54-	=54-	=54-	=54-	=54-	=54-	=54-	=54-	=54-	=54-	=54-	=54-
!	!	!	!	!	!	!	!	!	!	!LO:TX:t=P:problem=kreska pseudotaktowa	!	!LO:TX:t=P:problem=kreska pseudotaktowa	!	!	!	!	!	!	!	!	!
1GG	.	.	.	1.B	-tris	1GG	-tris	.	.	1.B	-tris	1.d	-tris	1G,<	-tris	1g,	-tris	1b,<	-tris	1dd	-tris
.	.	8E/L	.	.	.	.	.	8E/L	.	.	.	.	.	.	.	.	.	.	.	.	.
.	.	8F/J	.	.	.	.	.	8F/J	.	.	.	.	.	.	.	.	.	.	.	.	.
.	.	2G/	.	.	.	.	.	2G/	.	.	.	.	.	.	.	.	.	.	.	.	.
!LO:TX:b:i:t=a 4	!	!	!	!	!	!	!	!LO:TX:t=P:problem=kreska pseudotaktowa	!	!	!	!	!	!LO:TX:t=P:problem=kreska pseudotaktowa	!	!	!	!	!	!	!
2G\	.	2G/	-tris	.	.	2r	.	2G/	-tris	.	.	.	.	2G/	Qui	2g\	Qui	2b\	Qui	2dd\	Qui
*clefC4	*	*	*	*	*	*	*	*	*	*	*	*	*	*	*	*	*	*	*	*	*
!	!	!	!	!LO:LB:g=original	!	!	!	!	!	!	!	!	!	!	!	!	!	!LO:PB:g=original	!	!LO:LB:g=original	!
=55-	=55-	=55-	=55-	=55-	=55-	=55-	=55-	=55-	=55-	=55-	=55-	=55-	=55-	=55-	=55-	=55-	=55-	=55-	=55-	=55-	=55-
2d\	#	00.r	.	00.r	.	00.r	.	00.r	.	00.r	.	00.r	.	2d\	tol-	2f#X\	tol-	2a\	tol-	2dd\	tol-
2d\	.	.	.	.	.	.	.	.	.	.	.	.	.	2d\	-lis	2f#\	-lis	2a\	-lis	2dd\	-lis
!LO:TX:t=P:problem=kreska pseudotaktowa	!	!	!	!	!	!	!	!	!	!	!	!	!	!LO:TX:t=P:problem=kreska pseudotaktowa	!	!LO:TX:t=P:problem=kreska pseudotaktowa	!	!LO:TX:t=P:problem=kreska pseudotaktowa	!	!	!
2B\	.	.	.	.	.	.	.	.	.	.	.	.	.	2B\	pec-	2g\	pec-	2dd\	pec-	2dd\	pec-
=56-	=56-	=56-	=56-	=56-	=56-	=56-	=56-	=56-	=56-	=56-	=56-	=56-	=56-	=56-	=56-	=56-	=56-	=56-	=56-	=56-	=56-
1c	.	.	.	.	.	.	.	.	.	.	.	.	.	1c	-ca-	2g\	-ca-	1cc	-ca-	1ee	-ca-
.	.	.	.	.	.	.	.	.	.	.	.	.	.	.	.	2e\	-ta	.	.	.	.
*	*	*	*	*	*	*	*	*	*	*	*	*	*	*	*	*col	*	*	*	*	*
!LO:TX:t=P:problem=kreska pseudotaktowa	!	!	!	!	!	!	!	!	!	!	!	!	!	!LO:TX:t=P:problem=kreska pseudotaktowa	!	!	!	!LO:TX:t=P:problem=kreska pseudotaktowa	!	!	!
2B\	6	.	.	.	.	.	.	.	.	.	.	.	.	2B\	-ta	1g\	mun-	2g/	-ta	2dd\	-ta
=57-	=57-	=57-	=57-	=57-	=57-	=57-	=57-	=57-	=57-	=57-	=57-	=57-	=57-	=57-	=57-	=57-	=57-	=57-	=57-	=57-	=57-
!LO:TX:t=P:problem=kreska pseudotaktowa	!	!	!	!	!	!	!	!	!	!	!	!	!	!LO:TX:t=P:problem=kreska pseudotaktowa	!	!	!	!	!	!LO:TX:t=P:problem=kreska pseudotaktowa	!
1.A	7	.	.	.	.	.	.	.	.	.	.	.	.	1.A	mun-	.	.	1.a	mun-	1.cc	mun-
!	!	!	!	!	!	!	!	!	!	!	!	!	!	!	!	!LO:TX:t=P:problem=kreska pseudotaktowa	!	!	!	!	!
.	6	.	.	.	.	.	.	.	.	.	.	.	.	.	.	1f#X	.	.	.	.	.
*	*	*	*	*	*	*	*	*	*	*	*	*	*	*	*	*Xcol	*	*	*	*	*
=58-	=58-	=58-	=58-	=58-	=58-	=58-	=58-	=58-	=58-	=58-	=58-	=58-	=58-	=58-	=58-	=58-	=58-	=58-	=58-	=58-	=58-
1G	.	.	.	.	.	.	.	.	.	.	.	.	.	2G,</	-di	2g,\	-di	2d,</	-di	2b\	-di
.	.	.	.	.	.	.	.	.	.	.	.	.	.	2G/	Mi-	2d\	mi-	2g/	mi-	2b\	mi-
!LO:TX:t=P:problem=kreska pseudotaktowa	!	!	!	!	!	!	!	!	!	!	!	!	!	!LO:TX:t=P:problem=kreska pseudotaktowa	!	!LO:TX:t=P:problem=kreska pseudotaktowa	!	!LO:TX:t=P:problem=kreska pseudotaktowa	!	!	!
2G/	.	.	.	.	.	.	.	.	.	.	.	.	.	2G/	-ſe-	2d\	-ſe-	2g/	-ſe-	2b\	-ſe-
!LO:LB:g=original	!	!	!	!	!	!	!	!	!	!	!	!	!	!	!	!	!	!	!	!	!
=59-	=59-	=59-	=59-	=59-	=59-	=59-	=59-	=59-	=59-	=59-	=59-	=59-	=59-	=59-	=59-	=59-	=59-	=59-	=59-	=59-	=59-
*	*	*	*	*	*	*	*	*	*	*	*	*	*	*	*	*col	*	*	*	*	*
1F#X	.	0.r	.	0.r	.	0.r	.	0.r	.	0.r	.	0.r	.	1F#X	-re-	1d	-re-	1a	-re-	1dd	-re-
!	!	!	!	!	!	!	!	!	!	!	!	!	!	!	!	!	!	!LO:TX:t=P:problem=kreska pseudotaktowa	!	!	!
2G/	-	.	.	.	.	.	.	.	.	.	.	.	.	2G/	-re	1d\	-re	2g/	-re	2b-X\	-re
=60-	=60-	=60-	=60-	=60-	=60-	=60-	=60-	=60-	=60-	=60-	=60-	=60-	=60-	=60-	=60-	=60-	=60-	=60-	=60-	=60-	=60-
!	!	!	!	!	!	!	!	!LO:TX:t=P:problem=kreska pseudotaktowa	!	!LO:TX:t=P:problem=kreska pseudotaktowa	!	!LO:TX:t=P:problem=kreska pseudotaktowa	!	!	!	!	!	!	!	!LO:TX:t=P:problem=kreska pseudotaktowa	!
1.A	6 4	.	.	.	.	.	.	.	.	.	.	.	.	1.A	No-	.	.	2f/	no-	1.a	no-
.	5 3	.	.	.	.	.	.	.	.	.	.	.	.	.	.	1c#X	no-	1e	.	.	.
*	*	*	*	*	*	*	*	*	*	*	*	*	*	*	*	*Xcol	*	*	*	*	*
=61-	=61-	=61-	=61-	=61-	=61-	=61-	=61-	=61-	=61-	=61-	=61-	=61-	=61-	=61-	=61-	=61-	=61-	=61-	=61-	=61-	=61-
!	!	!	!	!	!	!	!	!	!	!	!	!	!	!LO:TX:t=P:problem=kreska pseudotaktowa	!	!	!	!LO:TX:t=P:problem=kreska pseudotaktowa	!	!LO:TX:t=P:problem=kreska pseudotaktowa	!
1D	.	2r	.	2r	.	2r	.	2r	.	2r	.	1r	.	1.D	-bis	1d	-bis	1.f#X	-bis	1.a	-bis
.	.	2r	.	2r	.	2r	.	2r	.	2r	.	.	.	.	.	.	.	.	.	.	.
*clefF4	*	*	*	*	*	*	*	*	*	*	*	*	*	*	*	*	*	*	*	*	*
!LO:TX:b:i:t=Qui tollis peccata	!	!	!	!	!	!	!	!	!	!	!	!	!	!	!	!	!	!	!	!	!
!LO:TX:t=P:problem=kreska pseudotaktowa	!	!	!	!	!	!LO:TX:t=P:problem=kreska pseudotaktowa	!	!LO:TX:t=P:problem=kreska pseudotaktowa	!	!LO:TX:t=P:problem=kreska pseudotaktowa	!	!LO:TX:t=P:problem=kreska pseudotaktowa	!	!	!	!LO:TX:t=P:problem=kreska pseudotaktowa	!	!	!	!	!
2D/	.	2F/	Qui	2A/	Qui	2D/	qui	2F/	Qui	2A/	Qui	2d\	Qui	.	.	2r	.	.	.	.	.
!	!	!	!	!	!	!	!	!	!	!	!	!	!	!	!	!LO:PB:g=original	!	!	!	!	!
=62-	=62-	=62-	=62-	=62-	=62-	=62-	=62-	=62-	=62-	=62-	=62-	=62-	=62-	=62-	=62-	=62-	=62-	=62-	=62-	=62-	=62-
1GG	.	2G/	tol-	2B\	tol-	2GG/	tol-	2G/	tol-	2B\	tol-	2d\	tol-	00.r	.	00.r	.	00.r	.	00.r	.
.	.	2G/	-lis	2B\	-lis	2GG/	lis	2G/	-lis	2B\	-lis	2d\	-lis	.	.	.	.	.	.	.	.
!LO:TX:t=P:problem=kreska pseudotaktowa	!	!	!	!	!	!LO:TX:t=P:problem=kreska pseudotaktowa	!	!LO:TX:t=P:problem=kreska pseudotaktowa	!	!	!	!LO:TX:t=P:problem=kreska pseudotaktowa	!	!	!	!	!	!	!	!	!
2GG/	.	2G/	pec-	2B\	pec-	2GG/	pec-	2G/	pec-	2B\	pec-	2d\	pec-	.	.	.	.	.	.	.	.
=63-	=63-	=63-	=63-	=63-	=63-	=63-	=63-	=63-	=63-	=63-	=63-	=63-	=63-	=63-	=63-	=63-	=63-	=63-	=63-	=63-	=63-
*	*	*	*	*	*	*	*	*	*	*	*	*col	*	*	*	*	*	*	*	*	*
1C	.	1G	-ca-	1c	-ca-	1C	-ca-	1G	-ca-	1c	-ca-	1e	-ca-	.	.	.	.	.	.	.	.
!	!	!	!	!	!	!LO:TX:t=P:problem=kreska pseudotaktowa	!	!LO:TX:t=P:problem=kreska pseudotaktowa	!	!LO:TX:t=P:problem=kreska pseudotaktowa	!	!	!	!	!	!	!	!	!	!	!
2AA/	.	2F/	-ta	2c\	-ta	2AA/	-ta	2F/	-ta	2c\	-ta	1fny\	-ta	.	.	.	.	.	.	.	.
=64-	=64-	=64-	=64-	=64-	=64-	=64-	=64-	=64-	=64-	=64-	=64-	=64-	=64-	=64-	=64-	=64-	=64-	=64-	=64-	=64-	=64-
!LO:TX:t=P:problem=kreska pseudotaktowa	!	!	!	!	!	!LO:TX:t=P:problem=kreska pseudotaktowa	!	!LO:TX:t=P:problem=kreska pseudotaktowa	!	!	!	!	!	!	!	!	!	!	!	!	!
1.GG	7 -	1.G	mun-	1.B-X	mun-	1.GG	mun-	1.G	mun-	1.B-X	Mun-	.	.	.	.	.	.	.	.	.	.
!	!	!	!	!	!	!	!	!	!	!	!	!LO:TX:t=P:problem=kreska pseudotaktowa	!	!	!	!	!	!	!	!	!
.	6	.	.	.	.	.	.	.	.	.	.	1e	mun-	.	.	.	.	.	.	.	.
*	*	*	*	*	*	*	*	*	*	*	*	*Xcol	*	*	*	*	*	*	*	*	*
=65-	=65-	=65-	=65-	=65-	=65-	=65-	=65-	=65-	=65-	=65-	=65-	=65-	=65-	=65-	=65-	=65-	=65-	=65-	=65-	=65-	=65-
2FF,</	.	2c\	-di	2A\	-di	2FF/	-di	2c\	-di	2A\	-di	2f\	-di	.	.	.	.	.	.	.	.
!LO:TX:b:i:t=Suſcipe depr. nostr	!	!	!	!	!	!	!	!	!	!	!	!	!	!	!	!	!	!	!	!	!
2.Fny\	.	2.A/	Sus-	2.c\	Suſ-	2.F\	sus-	2.A/	Sus-	2.c\	Suſ-	2.f\	Sus-	.	.	.	.	.	.	.	.
!LO:TX:t=P:problem=kreska pseudotaktowa	!	!	!	!	!	!LO:TX:t=P:problem=kreska pseudotaktowa	!	!LO:TX:t=P:problem=kreska pseudotaktowa	!	!LO:TX:t=P:problem=kreska pseudotaktowa	!	!LO:TX:t=P:problem=kreska pseudotaktowa	!	!	!	!	!	!	!	!	!
4F\	.	4A/	-ci-	4c\	-ci-	4F\	-ci-	4A/	-ci-	4c\	-ci-	4f\	-ci-	.	.	.	.	.	.	.	.
!	!	!	!	!	!	!	!	!LO:LB:g=original	!	!	!	!	!	!	!	!	!	!	!	!	!
=66-	=66-	=66-	=66-	=66-	=66-	=66-	=66-	=66-	=66-	=66-	=66-	=66-	=66-	=66-	=66-	=66-	=66-	=66-	=66-	=66-	=66-
1C	.	2G/	-pe	2c\	-pe	2C/	-pe	2G/	-pe	2c,\	-pe	2e,\	-pe	0.r	.	0.r	.	0.r	.	0.r	.
.	.	4G/	de-	4c\	de-	4C/	de-	4G/	de-	4c\	de-	4e\	de-	.	.	.	.	.	.	.	.
.	.	4G/	-pre-	4c\	-pre-	4C/	-pre-	4G/	-pre-	4c\	-pre-	4e\	-pre-	.	.	.	.	.	.	.	.
!LO:TX:t=P:problem=kreska pseudotaktowa	!	!LO:LB:g=original	!	!	!	!	!	!	!	!	!	!	!	!	!	!	!	!	!	!	!
2D/	.	4F/	-ca-	4A\	-ca-	4D/	-ca-	4F/	-ca-	4A\	-ca-	4d\	-ca-	.	.	.	.	.	.	.	.
!	!	!	!	!	!	!LO:TX:t=P:problem=kreska pseudotaktowa	!	!LO:TX:t=P:problem=kreska pseudotaktowa	!	!LO:TX:t=P:problem=kreska pseudotaktowa	!	!LO:TX:t=P:problem=kreska pseudotaktowa	!	!	!	!	!	!	!	!	!
.	.	4F/	-ti-	4A\	-ti-	4D/	-ti-	4F/	-ti-	4A\	-ti-	4d\	-ti-	.	.	.	.	.	.	.	.
=67-	=67-	=67-	=67-	=67-	=67-	=67-	=67-	=67-	=67-	=67-	=67-	=67-	=67-	=67-	=67-	=67-	=67-	=67-	=67-	=67-	=67-
!	!	!	!	!	!	!	!	!	!	!	!	!	!	!	!	!LO:TX:t=P:problem=kreska pseudotaktowa	!	!LO:TX:t=P:problem=kreska pseudotaktowa	!	!	!
1AA	#	1E	-o-	1A	-o-	1AA	-o-	1E	-o-	1A	-o-	1c#X	-o-	.	.	.	.	.	.	.	.
!	!	!	!	!	!	!	!	!	!	!	!	!LO:SIC:v:s=2d\	!	!	!	!	!	!	!	!	!
!	!	!	!	!	!	!	!	!	!	!	!	!LO:TX:t=P:problem=kreska pseudotaktowa	!	!	!	!	!	!	!	!	!
!	!	!	!	!	!	!LO:TX:t=P:problem=kreska pseudotaktowa	!	!LO:TX:t=P:problem=kreska pseudotaktowa	!	!	!	!LO:TX:t=P:problem=# above	!	!	!	!	!	!	!	!	!
2FF/	.	2F/	-nem	2A\	-nem	2FF/	-nem	2F/	-nem	2A\	-nem	2d#\	-nem	.	.	.	.	.	.	.	.
=68-	=68-	=68-	=68-	=68-	=68-	=68-	=68-	=68-	=68-	=68-	=68-	=68-	=68-	=68-	=68-	=68-	=68-	=68-	=68-	=68-	=68-
!	!	!	!	!	!	!	!	!	!	!	!	!	!	!LO:TX:t=P:problem=kreska pseudotaktowa	!	!	!	!	!	!LO:TX:t=P:problem=kreska pseudotaktowa	!
2GG/	.	1.E	nos-	2B-X\	no-	2GG/	no-	1.E	nos-	2B-X\	Noſ-	1dny	noſ-	1.r	.	1.r	.	1.r	.	1.r	.
!	!	!	!	!	!	!	!	!	!	!LO:TX:t=P:problem=kreska pseudotaktowa	!	!	!	!	!	!	!	!	!	!	!
1AA	.	.	.	1A	.	1AA	.	.	.	1A	.	.	.	.	.	.	.	.	.	.	.
!	!	!	!	!	!	!	!	!	!	!	!	!LO:SIC:v:s=2c#i	!	!	!	!	!	!	!	!	!
.	.	.	.	.	.	.	.	.	.	.	.	2cny/	.	.	.	.	.	.	.	.	.
=69-	=69-	=69-	=69-	=69-	=69-	=69-	=69-	=69-	=69-	=69-	=69-	=69-	=69-	=69-	=69-	=69-	=69-	=69-	=69-	=69-	=69-
!LO:TX:b:i:t=a 4.	!	!LO:N:vis=1	!	!LO:N:vis=1	!	!LO:TX:t=P:problem=kreska pseudotaktowa	!	!LO:TX:t=P:problem=kreska pseudotaktowa	!	!LO:TX:t=P:problem=kreska pseudotaktowa	!	!LO:TX:t=P:problem=kreska pseudotaktowa	!	!	!	!	!	!	!	!	!
1D,<	.	1.F	-tram	1.A	-ſtram	1.D	-stram	1.F	-tram	1.A	-tram	1.d	-tram	2r	.	2r	.	2r	.	2r	.
.	.	.	.	.	.	.	.	.	.	.	.	.	.	2r	.	2r	.	2r	.	2r	.
*clefC4	*	*	*	*	*	*	*	*	*	*	*	*	*	*	*	*	*	*	*	*	*
!LO:TX:t=P:problem=kreska pseudotaktowa	!	!	!	!	!	!	!	!	!	!	!	!	!	!LO:TX:t=P:problem=kreska pseudotaktowa	!	!LO:TX:t=P:problem=kreska pseudotaktowa	!	!LO:TX:t=P:problem=kreska pseudotaktowa	!	!LO:TX:t=P:problem=kreska pseudotaktowa	!
2d\	.	.	.	.	.	.	.	.	.	.	.	.	.	2d\	Qui	2fny\	Qui	2a\	Qui	2dd\	Qui
!	!	!	!	!	!	!	!	!	!	!LO:LB:g=original	!	!LO:LB:g=original	!	!	!	!	!	!	!	!	!
=70-	=70-	=70-	=70-	=70-	=70-	=70-	=70-	=70-	=70-	=70-	=70-	=70-	=70-	=70-	=70-	=70-	=70-	=70-	=70-	=70-	=70-
!	!	!	!	!	!	!	!	!	!	!	!	!	!	!	!	!	!	!	!	!LO:TX:t=P:problem=# above	!
2A\	.	0.r	.	0.r	.	0.r	.	0.r	.	0.r	.	0.r	.	2A\	ſe-	2e\	Se-	2a\	se-	2cc#X\	ſe-
2A\	.	.	.	.	.	.	.	.	.	.	.	.	.	2A\	-des	2e\	-des	2a\	-des	2cc#\	-des
!LO:TX:t=P:problem=kreska pseudotaktowa	!	!	!	!	!	!	!	!	!	!	!	!	!	!LO:TX:t=P:problem=kreska pseudotaktowa	!	!LO:TX:t=P:problem=kreska pseudotaktowa	!	!LO:TX:t=P:problem=kreska pseudotaktowa	!	!LO:TX:t=P:problem=kreska pseudotaktowa	!
2c#X\	.	.	.	.	.	.	.	.	.	.	.	.	.	2c#X\	ad	2e\	ad	2a\	ad	2ee\	ad
!	!	!	!	!	!	!	!	!	!	!	!	!	!	!LO:PB:g=original	!	!	!	!	!	!	!
=71-	=71-	=71-	=71-	=71-	=71-	=71-	=71-	=71-	=71-	=71-	=71-	=71-	=71-	=71-	=71-	=71-	=71-	=71-	=71-	=71-	=71-
2.d\	.	.	.	.	.	.	.	.	.	.	.	.	.	2.d\	dex-	2.f\	dex-	2.a\	ad	2.dd\	ad
!	!	!	!	!	!	!	!	!	!	!	!	!	!	!	!	!	!	!	!	!	!LO:SIC:s=dex-
4d\	.	.	.	.	.	.	.	.	.	.	.	.	.	4d\	-te-	4f\	-te-	4a\	dex-	4dd\	ex-
!LO:TX:t=P:problem=kreska pseudotaktowa	!	!	!	!	!	!	!	!	!	!	!	!	!	!LO:TX:t=P:problem=kreska pseudotaktowa	!	!LO:TX:t=P:problem=kreska pseudotaktowa	!	!LO:TX:t=P:problem=kreska pseudotaktowa	!	!LO:TX:t=P:problem=kreska pseudotaktowa	!
2c#X\	.	.	.	.	.	.	.	.	.	.	.	.	.	2c#X\	-ram	2a\	-ram	2a\	-te-	2ee\	-te-
!LO:LB:g=original	!	!	!	!	!	!	!	!	!	!	!	!	!	!	!	!	!	!	!	!	!
=72-	=72-	=72-	=72-	=72-	=72-	=72-	=72-	=72-	=72-	=72-	=72-	=72-	=72-	=72-	=72-	=72-	=72-	=72-	=72-	=72-	=72-
!	!	!	!	!	!	!	!	!LO:TX:t=P:problem=kreska pseudotaktowa	!	!LO:TX:t=P:problem=kreska pseudotaktowa	!	!LO:TX:t=P:problem=kreska pseudotaktowa	!	!	!	!	!	!	!	!	!
2d\	.	1.r	.	1.r	.	1.r	.	1.r	.	1.r	.	1.r	.	2d\	.	1a	Pa-	2dd\	-ra(m)	2ff\	-ram
!	!	!	!	!	!	!	!	!	!	!	!	!	!	!	!	!	!	!	!	!LO:TX:t=P:problem=kreska pseudotaktowa	!
1e	4	.	.	.	.	.	.	.	.	.	.	.	.	1e	Pa-	.	.	1b	Pa-	1ee	Pa-
.	3	.	.	.	.	.	.	.	.	.	.	.	.	.	.	2g#X\	.	.	.	.	.
=73-	=73-	=73-	=73-	=73-	=73-	=73-	=73-	=73-	=73-	=73-	=73-	=73-	=73-	=73-	=73-	=73-	=73-	=73-	=73-	=73-	=73-
!	!	!	!	!	!	!	!	!	!	!	!	!	!	!	!	!	!	!LO:TX:t=P:problem=kreska pseudotaktowa	!	!	!
!	!	!	!	!	!	!	!	!	!	!	!	!	!	!LO:TX:t=P:problem=kreska pseudotaktowa	!	!LO:TX:t=P:problem=kreska pseudotaktowa	!	!LO:TX:b:t=P:problem=# below	!	!	!
2A/	.	2r	.	2r	.	2r	.	2r	.	2r	.	2r	.	1.A	-tris	1.a	-tris	2cc#X\	-tris	2ee\	-tris
*clefF4	*	*	*	*	*	*	*	*	*	*	*	*	*	*	*	*	*	*	*	*	*
!LO:TX:b:i:t=T.	!	!	!	!	!	!	!	!	!	!	!	!	!	!	!	!	!	!	!	!	!
2F\	.	2A/	mi-	2c\	mi-	2F\	mi-	2A/	Mi-	2c\	Mi-	2f\	Mi-	.	.	.	.	2r	.	2r	.
!LO:TX:b:i:t=miſerere	!	!	!	!	!	!	!	!	!	!	!	!	!	!	!	!	!	!	!	!	!
!LO:TX:t=P:problem=kreska pseudotaktowa	!	!	!	!	!	!LO:TX:t=P:problem=kreska pseudotaktowa	!	!LO:TX:t=P:problem=kreska pseudotaktowa	!	!LO:TX:t=P:problem=kreska pseudotaktowa	!	!LO:TX:t=P:problem=kreska pseudotaktowa	!	!	!	!	!	!LO:TX:t=P:problem=kreska pseudotaktowa	!	!LO:TX:t=P:problem=kreska pseudotaktowa	!
2F\	.	2A/	-ſe-	2c\	-ſe-	2F\	-se-	2A/	-se-	2c\	-ſe-	2f\	-ſe-	.	.	.	.	2r	.	2r	.
!	!	!	!	!	!	!	!	!	!	!	!	!	!	!	!	!	!	!LO:LB:g=original	!	!	!
=74-	=74-	=74-	=74-	=74-	=74-	=74-	=74-	=74-	=74-	=74-	=74-	=74-	=74-	=74-	=74-	=74-	=74-	=74-	=74-	=74-	=74-
*	*	*	*	*col	*	*	*	*	*	*col	*	*	*	*	*	*	*	*	*	*	*
1D	.	1A	-re-	1d	-re-	1D	-re-	1A	-re-	1d	-re-	1f	-re-	0.r	.	0.r	.	0.r	.	0.r	.
!LO:TX:t=P:problem=kreska pseudotaktowa	!	!	!	!	!	!	!	!LO:TX:t=P:problem=kreska pseudotaktowa	!	!	!	!LO:TX:t=P:problem=kreska pseudotaktowa	!	!	!	!	!	!	!	!	!
2C/	6	2E/	-re	1A\	-re	2C/	-re	2E/	-re	1A\	-re	2e\	-re	.	.	.	.	.	.	.	.
=75-	=75-	=75-	=75-	=75-	=75-	=75-	=75-	=75-	=75-	=75-	=75-	=75-	=75-	=75-	=75-	=75-	=75-	=75-	=75-	=75-	=75-
!	!	!	!	!	!	!	!	!	!	!	!	!	!	!	!	!	!	!LO:TX:t=P:problem=kreska pseudotaktowa	!	!LO:TX:t=P:problem=kreska pseudotaktowa	!
1.BB-X	7	2F/	no-	.	.	1.BB-X	no-	2F/	no-	.	.	1.d	no-	.	.	.	.	.	.	.	.
*	*	*col	*	*	*	*	*	*col	*	*	*	*	*	*	*	*	*	*	*	*	*
!	!	!	!	!	!	!	!	!LO:TX:t=P:problem=kreska pseudotaktowa	!	!	!	!	!	!	!	!	!	!	!	!	!
.	6	1D	.	1G	no-	.	.	1D	.	1G	no-	.	.	.	.	.	.	.	.	.	.
*	*	*Xcol	*	*Xcol	*	*	*	*Xcol	*	*Xcol	*	*	*	*	*	*	*	*	*	*	*
!	!	!	!	!LO:LB:g=original	!	!LO:LB:g=original	!	!	!	!	!	!	!	!	!	!	!	!	!	!LO:PB:g=original	!
=76-	=76-	=76-	=76-	=76-	=76-	=76-	=76-	=76-	=76-	=76-	=76-	=76-	=76-	=76-	=76-	=76-	=76-	=76-	=76-	=76-	=76-
!	!	!	!	!	!	!	!	!	!	!	!	!LO:SIC:v:s=1.c#	!	!	!	!	!	!	!	!	!
!	!	!	!	!	!	!	!	!	!	!LO:TX:t=P:problem=kreska pseudotaktowa	!	!LO:TX:t=P:problem=kreska pseudotaktowa	!	!	!	!	!	!	!	!	!
1AA	#	1E	-bis	1A	-bis	1.AA	-bis	1E	-bis	1.A	-bis	1.c	-bis	2.A/	Quo-	2.e\	Quo-	2.a\	Quo-	2.cc#X\	Quo-
.	.	.	.	.	.	.	.	.	.	.	.	.	.	4A/	-ni-	4e\	-ni-	4a\	-ni-	4cc#\	-ni-
*clefC4	*	*	*	*	*	*	*	*	*	*	*	*	*	*	*	*	*	*	*	*	*
!LO:TX:t=P:problem=kreska pseudotaktowa	!	!	!	!	!	!	!	!	!	!	!	!	!	!	!	!	!	!	!	!	!
!LO:TX:b:t=a 4.	!	!	!	!	!	!	!	!LO:TX:t=P:problem=kreska pseudotaktowa	!	!	!	!	!	!LO:TX:t=P:problem=kreska pseudotaktowa	!	!LO:TX:t=P:problem=kreska pseudotaktowa	!	!LO:TX:t=P:problem=kreska pseudotaktowa	!	!LO:TX:t=P:problem=kreska pseudotaktowa	!
2A/	.	2r	.	2r	.	.	.	2r	.	.	.	.	.	2A/	-am	2e\	-am	2a\	-am	2cc#\	-am
=77-	=77-	=77-	=77-	=77-	=77-	=77-	=77-	=77-	=77-	=77-	=77-	=77-	=77-	=77-	=77-	=77-	=77-	=77-	=77-	=77-	=77-
2d\	.	0.r	.	0.r	.	0.r	.	0.r	.	0.r	.	0.r	.	2d\	tu	2f\	tu	2a\	tu	2dd\	tu
2d\	.	.	.	.	.	.	.	.	.	.	.	.	.	2d\	So-	2f\	So-	2a\	So-	2dd\	So-
!	!	!	!	!	!	!	!	!	!	!	!	!	!	!LO:TX:t=P:problem=kreska pseudotaktowa	!	!LO:TX:t=P:problem=kreska pseudotaktowa	!	!LO:TX:t=P:problem=kreska pseudotaktowa	!	!	!
2A\	.	.	.	.	.	.	.	.	.	.	.	.	.	2A/	-lus	2f\	-lus	2a\	-lus	2ccny\	-lus
=78-	=78-	=78-	=78-	=78-	=78-	=78-	=78-	=78-	=78-	=78-	=78-	=78-	=78-	=78-	=78-	=78-	=78-	=78-	=78-	=78-	=78-
2B-X\	.	.	.	.	.	.	.	.	.	.	.	.	.	2B-X\	San-	1f	San-	2dd\	San-	2b-X\	San-
!	!	!	!	!	!	!	!	!	!	!	!	!	!	!	!	!	!	!	!	!LO:TX:t=P:problem=kreska pseudotaktowa	!
1cny	.	.	.	.	.	.	.	.	.	.	.	.	.	1cny	.	.	.	1ccny	.	1g	.
.	.	.	.	.	.	.	.	.	.	.	.	.	.	.	.	2e\	.	.	.	.	.
*clefF4	*	*	*	*	*	*	*	*	*	*	*	*	*	*	*	*	*	*	*	*	*
=79-	=79-	=79-	=79-	=79-	=79-	=79-	=79-	=79-	=79-	=79-	=79-	=79-	=79-	=79-	=79-	=79-	=79-	=79-	=79-	=79-	=79-
!LO:TX:b:i:t=T.\ntu Solus	!	!	!	!	!	!	!	!	!	!	!	!	!	!	!	!	!	!	!	!	!
2F\	.	2c\	tu	2f\	tu	2F\	tu	2c\	Tu	2f\	Tu	2a\	Tu	1Fny	-ctus	1f	-ctus	1cc	-ct(us)	1a	-ctus
2F\	.	2c\	so-	2f\	so-	2F\	so-	2c\	So-	2f\	So-	2a\	So-	.	.	.	.	.	.	.	.
!LO:TX:t=P:problem=kreska pseudotaktowa	!	!	!	!	!	!LO:TX:t=P:problem=kreska pseudotaktowa	!	!LO:TX:t=P:problem=kreska pseudotaktowa	!	!LO:TX:t=P:problem=kreska pseudotaktowa	!	!LO:TX:t=P:problem=kreska pseudotaktowa	!	!LO:TX:t=P:problem=kreska pseudotaktowa	!	!LO:TX:t=P:problem=kreska pseudotaktowa	!	!LO:TX:t=P:problem=kreska pseudotaktowa	!	!LO:TX:t=P:problem=kreska pseudotaktowa	!
2C/	.	2c\	-lus	2e\	-lus	2C/	-lus	2c\	-lus	2e\	-lus	2g\	-lus	2r	.	2r	.	2r	.	2r	.
=80-	=80-	=80-	=80-	=80-	=80-	=80-	=80-	=80-	=80-	=80-	=80-	=80-	=80-	=80-	=80-	=80-	=80-	=80-	=80-	=80-	=80-
!	!	!	!	!	!	!	!	!	!	!	!	!	!	!	!	!	!	!LO:TX:t=P:problem=kreska pseudotaktowa	!	!	!
2D\	.	1A	Do-	2d\	Do-	2D/	Do-	1A	D(o-	2d\	Do-	2f\	D(o-	1.r	.	1.r	.	1.r	.	1.r	.
!LO:TX:t=P:problem=kreska pseudotaktowa	!	!	!	!	!	!	!	!	!	!	!	!	!	!	!	!	!	!	!	!	!
1E	.	.	.	2.Bny\	.	2.E\	.	.	.	2.Bny\	.	2.e\	.	.	.	.	.	.	.	.	.
!	!	!	!	!	!	!	!	!LO:SIC:v:s=2G#/	!	!	!	!	!	!	!	!	!	!	!	!	!
!	!	!LO:TX:b:t=P:problem=# below	!	!	!	!	!	!LO:TX:t=P:problem=kreska pseudotaktowa	!	!	!	!	!	!	!	!	!	!	!	!	!
.	.	2G#X/	-mi-	.	.	.	.	2G/	-mi)-	.	.	.	.	.	.	.	.	.	.	.	.
!	!	!	!	!	!	!	!	!	!	!LO:TX:t=P:problem=kreska pseudotaktowa	!	!LO:TX:t=P:problem=kreska pseudotaktowa	!	!	!	!	!	!	!	!	!
.	.	.	.	4B\	-mi-	4E\	-mi-	.	.	4B\	-mi-	4e\	-mi)-	.	.	.	.	.	.	.	.
=81-	=81-	=81-	=81-	=81-	=81-	=81-	=81-	=81-	=81-	=81-	=81-	=81-	=81-	=81-	=81-	=81-	=81-	=81-	=81-	=81-	=81-
!	!	!	!	!	!	!LO:TX:t=P:problem=kreska pseudotaktowa	!	!	!	!	!	!	!	!	!	!	!	!	!	!	!
2AA,</	.	1A	-nus	1c	-nus	1AA	-nus	1A	-nus	1c	-nus	1e	-nus	2A/	tu	2a\	tu	2cc\	tu	2ee\	tu
!LO:TX:b:i:t=a 4.	!	!	!	!	!	!	!	!	!	!	!	!	!	!	!	!	!	!	!	!	!
2A\	.	.	.	.	.	.	.	.	.	.	.	.	.	2A/	So-	2a\	So-	2cc\	So-	2ee\	So-
!LO:TX:t=P:problem=kreska pseudotaktowa	!	!	!	!	!	!	!	!LO:TX:t=P:problem=kreska pseudotaktowa	!	!LO:TX:t=P:problem=kreska pseudotaktowa	!	!LO:TX:t=P:problem=kreska pseudotaktowa	!	!LO:TX:t=P:problem=kreska pseudotaktowa	!	!LO:TX:t=P:problem=kreska pseudotaktowa	!	!LO:TX:t=P:problem=kreska pseudotaktowa	!	!	!
!	!	!	!	!	!	!	!	!LO:PB:g=original	!	!	!	!	!	!	!	!	!	!	!	!	!
2E\	.	2r	.	2r	.	2r	.	2r	.	2r	.	2r	.	2E/	-lus	2gny\	-lus	2b\	-lus	4ee\	-lus
!	!	!	!	!	!	!	!	!	!	!	!	!	!	!	!	!	!	!	!	!LO:TX:t=P:problem=kreska pseudotaktowa	!
.	.	.	.	.	.	.	.	.	.	.	.	.	.	.	.	.	.	.	.	4ee\	al-
!	!	!	!	!	!	!	!	!	!	!	!	!	!	!	!	!LO:LB:g=original	!	!	!	!	!
=82-	=82-	=82-	=82-	=82-	=82-	=82-	=82-	=82-	=82-	=82-	=82-	=82-	=82-	=82-	=82-	=82-	=82-	=82-	=82-	=82-	=82-
2F\	.	0.r	.	0.r	.	0.r	.	0.r	.	0.r	.	0.r	.	2F/	Al-	2f\	Al-	2a\	al-	1cc	-tiſ-
!LO:TX:t=P:problem=kreska pseudotaktowa	!	!	!	!	!	!	!	!	!	!	!	!	!	!	!	!	!	!	!	!	!
1G	.	.	.	.	.	.	.	.	.	.	.	.	.	2.G/	-tiſ-	2.d\	-tiſ-	2.g/	-tiſ-	.	.
.	.	.	.	.	.	.	.	.	.	.	.	.	.	.	.	.	.	.	.	2bny\	-si-
!	!	!	!	!	!	!	!	!	!	!	!	!	!	!LO:TX:t=P:problem=kreska pseudotaktowa	!	!	!	!LO:TX:t=P:problem=kreska pseudotaktowa	!	!	!
.	.	.	.	.	.	.	.	.	.	.	.	.	.	4G/	-si-	4d\	-si-	4g/	-si-	.	.
=83-	=83-	=83-	=83-	=83-	=83-	=83-	=83-	=83-	=83-	=83-	=83-	=83-	=83-	=83-	=83-	=83-	=83-	=83-	=83-	=83-	=83-
!LO:TX:t=P:problem=kreska pseudotaktowa	!	!	!	!	!	!	!	!	!	!	!	!	!	!	!	!LO:TX:t=P:problem=kreska pseudotaktowa	!	!	!	!LO:TX:t=P:problem=kreska pseudotaktowa	!
1.C	.	.	.	.	.	.	.	.	.	.	.	.	.	1C	-mus	1.e	-mus	1.g	-m(us)	1.cc	-mus
.	.	.	.	.	.	.	.	.	.	.	.	.	.	2.c\	Je-	.	.	.	.	.	.
!LO:LB:g=original	!	!	!	!	!	!	!	!	!	!	!	!	!	!	!	!	!	!	!	!	!
=84-	=84-	=84-	=84-	=84-	=84-	=84-	=84-	=84-	=84-	=84-	=84-	=84-	=84-	=84-	=84-	=84-	=84-	=84-	=84-	=84-	=84-
*	*	*	*	*	*	*	*	*	*	*	*	*	*	*	*	*	*	*	*	*col	*
!LO:TX:b:i:t=Jeſu Chriſte	!	!	!	!	!	!	!	!	!	!	!	!	!	!	!	!	!	!	!	!	!
1AA	.	1A	Je-	1c	Je-	1AA	Je-	1A	Je-	1c	Je-	1e	Je-	.	.	2a\	Je-	4cc\	Je-	1ee	Je-
.	.	.	.	.	.	.	.	.	.	.	.	.	.	4Bny\	.	.	.	4dd\	.	.	.
.	.	.	.	.	.	.	.	.	.	.	.	.	.	2A/	.	2a\	-ſu	2.ee\	.	.	.
!LO:TX:t=P:problem=kreska pseudotaktowa	!	!	!	!	!	!LO:TX:t=P:problem=kreska pseudotaktowa	!	!LO:TX:t=P:problem=kreska pseudotaktowa	!	!LO:TX:t=P:problem=kreska pseudotaktowa	!	!	!	!LO:TX:t=P:problem=kreska pseudotaktowa	!	!LO:TX:t=P:problem=kreska pseudotaktowa	!	!	!	!	!
2GG#X/	.	2B\	-su	2B\	-ſu	2GG#X/	-su	2B\	-su	2B\	-ſu	2e\	-su	2E/	-ſu	2r	.	.	.	1ee\	-ſu
!	!	!	!	!	!	!	!	!	!	!	!	!	!	!	!	!	!	!LO:TX:t=P:problem=kreska pseudotaktowa	!	!	!
.	.	.	.	.	.	.	.	.	.	.	.	.	.	.	.	.	.	4b\	.	.	.
!	!	!	!	!	!	!	!	!	!	!	!	!	!	!LO:LB:g=original	!	!	!	!	!	!	!
=85-	=85-	=85-	=85-	=85-	=85-	=85-	=85-	=85-	=85-	=85-	=85-	=85-	=85-	=85-	=85-	=85-	=85-	=85-	=85-	=85-	=85-
!	!	!LO:TX:b:t=P:problem=# below	!	!	!	!	!	!LO:TX:b:t=P:problem=# below	!	!	!	!LO:TX:b:t=P:problem=# below	!	!	!	!	!	!LO:TX:t=P:problem=kreska pseudotaktowa	!	!	!
1.BBny	4	1F#X	Chri-	2.B\	Chri-	1.BBny	Chri-	1F#X	Chri-	2.B\	Chri-	1.f#X	Chri-	1.B	Chri-	1.f#X	Chri-	1.b	-su	.	.
!	!	!	!	!	!	!	!	!	!	!	!	!	!	!	!	!	!	!	!	!LO:TX:t=P:problem=kreska pseudotaktowa	!
.	.	.	.	.	.	.	.	.	.	.	.	.	.	.	.	.	.	.	.	1dd#X	Chri-
!	!	!	!	!LO:TX:t=P:problem=# above	!	!	!	!	!	!	!	!	!	!	!	!	!	!	!	!	!
.	.	.	.	4c#X\	.	.	.	.	.	4c#X\	.	.	.	.	.	.	.	.	.	.	.
!	!	!	!	!LO:TX:t=P:problem=# above	!	!	!	!	!	!	!	!	!	!	!	!	!	!	!	!	!
.	3	2B\	.	2d#X\	.	.	.	2B\	.	2d#X\	.	.	.	.	.	.	.	.	.	.	.
*	*	*	*	*	*	*	*	*	*	*	*	*	*	*	*	*	*	*	*	*Xcol	*
!	!	!LO:LB:g=original	!	!	!	!	!	!	!	!	!	!	!	!	!	!	!	!	!	!	!
=86-	=86-	=86-	=86-	=86-	=86-	=86-	=86-	=86-	=86-	=86-	=86-	=86-	=86-	=86-	=86-	=86-	=86-	=86-	=86-	=86-	=86-
!	!	!	!	!	!	!	!	!LO:TX:t=P:problem=kreska pseudotaktowa	!	!LO:TX:t=P:problem=kreska pseudotaktowa	!	!LO:TX:t=P:problem=kreska pseudotaktowa	!	!	!	!	!	!	!	!	!
1E,<	#	1.G#X	-ste	1.B	-ſte	1.E	-ste	1.G#X	-ste	1.B	-ſte	1.e	-ste	1E,<	-ſte	1g#X	-ſte	1b	Chri-	1ee	-ſte
!LO:TX:t=P:problem=kreska pseudotaktowa	!	!	!	!	!	!	!	!	!	!	!	!	!	!LO:TX:t=P:problem=kreska pseudotaktowa	!	!LO:TX:t=P:problem=kreska pseudotaktowa	!	!LO:TX:t=P:problem=kreska pseudotaktowa	!	!LO:TX:t=P:problem=kreska pseudotaktowa	!
2E\	.	.	.	.	.	.	.	.	.	.	.	.	.	2E/	Cum	2e\	Cum	(2g#X/	.	2b\	Cum
!	!	!	!	!	!	!	!	!	!	!LO:TX:a:i:t=Verte	!	!	!	!	!	!	!	!	!	!	!
!	!	!	!	!	!	!	!	!	!	!LO:PB:g=original	!	!	!	!	!	!	!	!	!	!	!
=87-	=87-	=87-	=87-	=87-	=87-	=87-	=87-	=87-	=87-	=87-	=87-	=87-	=87-	=87-	=87-	=87-	=87-	=87-	=87-	=87-	=87-
!	!	!	!	!	!	!	!	!	!	!	!	!	!	!	!	!	!	!	!	!LO:SIC:v:s=2cc#\	!
1AA,<	#	2r	.	2r	.	2r	.	2r	.	2r	.	2r	.	2A/	San-	2e\	San-	2a\)	.	2cc\	San-
!	!	!	!	!	!	!	!	!	!	!	!	!	!	!	!	!	!	!	!	!LO:SIC:v:s=4cc#\	!
.	.	2r	.	2r	.	2r	.	2r	.	2r	.	2r	.	4A,</	-cto	4e\	-cto	4a,\	-ste	4cc,\	-cto
*	*	*	*	*	*	*	*	*	*	*	*	*	*	*	*	*	*ij	*	*	*	*ij
!	!	!	!	!	!	!	!	!	!	!	!	!	!	!	!	!	!	!	!	!LO:SIC:v:s=4cc#\	!
.	.	.	.	.	.	.	.	.	.	.	.	.	.	4A/	C(um)	4e\	Cum	4a\	Cu(m)	4cc\	Cum
!LO:TX:b:i:t=Cum S(an)cto	!	!	!	!	!	!LO:TX:t=P:problem=kreska pseudotaktowa	!	!LO:TX:t=P:problem=kreska pseudotaktowa	!	!LO:TX:t=P:problem=kreska pseudotaktowa	!	!LO:TX:t=P:problem=kreska pseudotaktowa	!	!	!	!	!	!	!	!LO:SIC:v:s=4cc#\	!
2AA/	.	2A/	Cum	2c#X\	Cum	2AA/	cum	2A/	Cum	2c#X\	Cum	2e\	Cum	4A/	S(an-	4e\	San-	4a\	S(an)-	4cc\	San-
!	!	!	!	!	!	!	!	!	!	!	!	!	!	!	!	!	!	!	!	!LO:SIC:v:s=4cc#\	!
!	!	!	!	!	!	!	!	!	!	!	!	!	!	!LO:TX:t=P:problem=kreska pseudotaktowa	!	!	!	!LO:TX:t=P:problem=kreska pseudotaktowa	!	!LO:TX:t=P:problem=kreska pseudotaktowa	!
.	.	.	.	.	.	.	.	.	.	.	.	.	.	4A/	-cto)	4e\	-cto	4a\	-cto	4cc\	-cto
*	*	*	*	*	*	*	*	*	*	*	*	*	*	*	*	*	*Xij	*	*	*	*Xij
!	!	!	!	!	!	!	!	!	!	!	!	!	!	!	!	!	!	!LO:LB:g=original	!	!LO:LB:g=original	!
=88-	=88-	=88-	=88-	=88-	=88-	=88-	=88-	=88-	=88-	=88-	=88-	=88-	=88-	=88-	=88-	=88-	=88-	=88-	=88-	=88-	=88-
!	!	!LO:TX:b:t=P:problem=# below	!	!	!	!	!	!LO:SIC:v:s=2F#/	!	!	!	!	!	!	!	!	!	!	!	!	!
1D	#	2F#X/	san-	2A/	San-	2D/	san-	2Fny/	San-	2A/	San-	2d\	San-	2.D/	Spi-	2.f#X\	Spi-	2.a\	Spi-	2.ddny\	Spi-
!	!	!	!	!	!	!	!	!LO:SIC:v:s=4F#/	!	!	!	!	!	!	!	!	!	!	!	!	!
.	.	4F#/	-cto	4A/	-cto	4D,</	-cto	4F,</	-cto	4A/	-cto	4d\	-cto	.	.	.	.	.	.	.	.
*	*	*	*ij	*	*	*	*ij	*	*ij	*	*	*	*	*	*	*	*	*	*	*	*
!	!	!	!	!	!	!	!	!LO:SIC:v:s=4F#/	!	!	!	!	!	!	!	!	!	!	!	!	!
.	.	4F#/	Cum	4A/	cum	4D/	cum	4F/	Cum	4A/	cum	4d\	cum	4D/	-ri-	4f#\	-ri-	4a\	-ri-	4dd\	-ri-
!LO:TX:t=P:problem=kreska pseudotaktowa	!	!	!	!	!	!	!	!LO:SIC:v:s=4F#/	!	!	!	!LO:PB:g=original	!	!LO:TX:t=P:problem=kreska pseudotaktowa	!	!LO:TX:t=P:problem=kreska pseudotaktowa	!	!LO:TX:t=P:problem=kreska pseudotaktowa	!	!LO:TX:t=P:problem=kreska pseudotaktowa	!
2D/	.	4F#/	san-	4A/	San-	4D/	san-	4F/	San-	4A/	San-	4d\	[San-	2D/	-tu	2f#\	-tu	2a\	-tu	2dd\	-tu
!	!	!	!	!	!	!	!	!LO:SIC:v:s=4F#/	!	!	!	!	!	!	!	!	!	!	!	!	!
!	!	!	!	!	!	!LO:TX:t=P:problem=kreska pseudotaktowa	!	!LO:TX:t=P:problem=kreska pseudotaktowa	!	!LO:TX:t=P:problem=kreska pseudotaktowa	!	!LO:TX:t=P:problem=kreska pseudotaktowa	!	!	!	!	!	!	!	!	!
.	.	4F#/	-cto	4A/	-cto	4D/	-cto	4F/	-cto	4A/	-cto	4d\	-cto	.	.	.	.	.	.	.	.
*	*	*	*Xij	*	*	*	*Xij	*	*Xij	*	*	*	*	*	*	*	*	*	*	*	*
=89-	=89-	=89-	=89-	=89-	=89-	=89-	=89-	=89-	=89-	=89-	=89-	=89-	=89-	=89-	=89-	=89-	=89-	=89-	=89-	=89-	=89-
2.GGny/	.	2.Gny/	Spi-	2.B\	Spi-	2.GGny/	spi-	2.Gny/	Spi-	2.B\	Spi-	2.d\	Spi-	2r	.	2r	.	2r	.	1r	.
.	.	.	.	.	.	.	.	.	.	.	.	.	.	2r	.	2r	.	2r	.	.	.
4GG/	.	4G/	-ri-	4B\	-ri-	4GG/	-ri-	4G/	-ri-	4B\	-ri-	4d\	-ri-	.	.	.	.	.	.	.	.
!LO:TX:b:t=a 4.	!	!	!	!	!	!	!	!LO:TX:t=P:problem=kreska pseudotaktowa	!	!LO:TX:t=P:problem=kreska pseudotaktowa	!	!LO:TX:t=P:problem=kreska pseudotaktowa	!	!LO:TX:t=P:problem=kreska pseudotaktowa	!	!LO:TX:t=P:problem=kreska pseudotaktowa	!	!LO:TX:t=P:problem=kreska pseudotaktowa	!	!LO:TX:t=P:problem=kreska pseudotaktowa	!
2G\	.	2G/	-tu	2B\	-tu	2GG/	-tu	2G/	-tu	2B\	-tu	2d\	-tu]	2G/	in	2gny\	in	2b\	in	2dd\	in
*clefC4	*	*	*	*	*	*	*	*	*	*	*	*	*	*	*	*	*	*	*	*	*
!	!	!	!	!LO:PB:g=original	!	!	!	!	!	!	!	!	!	!	!	!	!	!	!	!	!
=90-	=90-	=90-	=90-	=90-	=90-	=90-	=90-	=90-	=90-	=90-	=90-	=90-	=90-	=90-	=90-	=90-	=90-	=90-	=90-	=90-	=90-
2c\	.	0.r	.	0.r	.	0.r	.	0.r	.	0.r	.	0.r	.	2c\	glo-	2g\	glo-	2cc\	glo-	2ee\	glo-
4c\	.	.	.	.	.	.	.	.	.	.	.	.	.	4c\	-ri-	4g\	-ri-	4cc\	-ri-	4ee\	-ri-
4c\	.	.	.	.	.	.	.	.	.	.	.	.	.	4c\	-a	4g\	-a	4cc\	-a	4ee\	-a
4G/	.	.	.	.	.	.	.	.	.	.	.	.	.	4G/	DE-	4g\	De-	4b\	De-	4dd\	De-
!LO:TX:t=P:problem=kreska pseudotaktowa	!	!	!	!	!	!	!	!	!	!	!	!	!	!LO:TX:t=P:problem=kreska pseudotaktowa	!	!LO:TX:t=P:problem=kreska pseudotaktowa	!	!LO:TX:t=P:problem=kreska pseudotaktowa	!	!LO:TX:t=P:problem=kreska pseudotaktowa	!
4G/	.	.	.	.	.	.	.	.	.	.	.	.	.	4G/	-i	4g\	-i	4b\	-i	4dd\	-i
=91-	=91-	=91-	=91-	=91-	=91-	=91-	=91-	=91-	=91-	=91-	=91-	=91-	=91-	=91-	=91-	=91-	=91-	=91-	=91-	=91-	=91-
!	!	!	!	!	!	!	!	!	!	!	!	!LO:TX:t=P:problem=kreska pseudotaktowa	!	!	!	!	!	!	!	!	!
4A\	.	.	.	.	.	.	.	.	.	.	.	.	.	4A\	Pa-	1e	Pa-	2.ee\	Pa-	2.cc\	Pa-
4Bny\	.	.	.	.	.	.	.	.	.	.	.	.	.	4B\	.	.	.	.	.	.	.
4c\	.	.	.	.	.	.	.	.	.	.	.	.	.	4c\	.	.	.	.	.	.	.
4d\	.	.	.	.	.	.	.	.	.	.	.	.	.	4d\	.	.	.	8dd\L	.	8b\L	.
.	.	.	.	.	.	.	.	.	.	.	.	.	.	.	.	.	.	8cc\J	.	8a\J	.
!LO:TX:t=P:problem=kreska pseudotaktowa	!	!	!	!	!	!	!	!	!	!	!	!	!	!LO:TX:t=P:problem=kreska pseudotaktowa	!	!LO:TX:t=P:problem=kreska pseudotaktowa	!	!LO:TX:t=P:problem=kreska pseudotaktowa	!	!LO:TX:t=P:problem=kreska pseudotaktowa	!
2e\	.	.	.	.	.	.	.	.	.	.	.	.	.	2e\	.	2e\	-tris	2b\	.	2g#X/	.
!	!	!	!	!	!	!	!	!	!	!	!	!	!	!	!	!LO:LB:g=original	!	!	!	!	!
=92-	=92-	=92-	=92-	=92-	=92-	=92-	=92-	=92-	=92-	=92-	=92-	=92-	=92-	=92-	=92-	=92-	=92-	=92-	=92-	=92-	=92-
2C/	.	2r	.	2r	.	2r	.	2r	.	2r	.	2r	.	2c\	.	2e\	DE-	1a	.	2cc\	.
2D/	.	2r	.	2r	.	2r	.	2r	.	2r	.	2r	.	2d\	.	2fny\	-i	.	.	1b	.
!LO:TX:b:i:t=in glo(ri)a	!	!	!	!	!	!LO:TX:t=P:problem=kreska pseudotaktowa	!	!LO:TX:t=P:problem=kreska pseudotaktowa	!	!LO:TX:t=P:problem=kreska pseudotaktowa	!	!LO:TX:t=P:problem=kreska pseudotaktowa	!	!	!	!	!	!LO:TX:b:t=P:problem=# below	!	!	!
2E/	.	2E/	in	2B\	in	2E\	In	2E/	in	2B\	in	2e\	in	2e\	.	2e\	Pa-	2g#X/	.	.	.
*clefF4	*	*	*	*	*	*	*	*	*	*	*	*	*	*	*	*	*	*	*	*	*
=93-	=93-	=93-	=93-	=93-	=93-	=93-	=93-	=93-	=93-	=93-	=93-	=93-	=93-	=93-	=93-	=93-	=93-	=93-	=93-	=93-	=93-
!	!	!	!	!	!	!	!	!	!	!	!	!	!	!	!	!LO:TX:t=P:problem=kreska pseudotaktowa	!	!	!	!	!
2AA/	.	2E/	glo-	2cny\	glo-	2AA/	glo-	2E/	glo-	2cny\	glo-	2e\	glo-	1A	-tris	1.e	-tris	1a	-tris	1a	-tris
2AA/	.	4A/	-ri-	4c\	-ri-	4AA/	-ri-	4A/	-ri-	4c\	-ri-	4e\	-ri-	.	.	.	.	.	.	.	.
.	.	4A/	-a	4c\	-a	4AA/	-a	4A/	-a	4c\	-a	4e\	-a	.	.	.	.	.	.	.	.
!LO:TX:t=P:problem=kreska pseudotaktowa	!	!	!	!	!	!	!	!	!	!	!	!	!	!LO:TX:t=P:problem=kreska pseudotaktowa	!	!	!	!LO:TX:t=P:problem=kreska pseudotaktowa	!	!LO:TX:t=P:problem=kreska pseudotaktowa	!
2EE/	.	4B\	De-	4e\	De-	4EE/	De-	4B\	De-	4e\	DE-	4g\	De-	2r	.	.	.	2r	.	2r	.
!	!	!	!	!	!	!LO:TX:t=P:problem=kreska pseudotaktowa	!	!LO:TX:t=P:problem=kreska pseudotaktowa	!	!LO:TX:t=P:problem=kreska pseudotaktowa	!	!LO:TX:t=P:problem=kreska pseudotaktowa	!	!	!	!	!	!	!	!	!
.	.	4B\	-i	4e\	-i	4EE/	-i	4B\	-i	4e\	-i	4g\	-i	.	.	.	.	.	.	.	.
!	!	!	!	!	!	!LO:PB:g=original	!	!	!	!	!	!	!	!	!	!	!	!	!	!	!
=94-	=94-	=94-	=94-	=94-	=94-	=94-	=94-	=94-	=94-	=94-	=94-	=94-	=94-	=94-	=94-	=94-	=94-	=94-	=94-	=94-	=94-
4FF/	.	2.A/	pa-	2.c\	pa-	4FF/	Pa-	2.A/	Pa-	2.c\	Pa-	4fny\	Pa-	1.r	.	1.r	.	1.r	.	1.r	.
4GG/	.	.	.	.	.	4GG/	.	.	.	.	.	8e\L	.	.	.	.	.	.	.	.	.
.	.	.	.	.	.	.	.	.	.	.	.	8d\J	.	.	.	.	.	.	.	.	.
4AA/	.	.	.	.	.	4AA/	.	.	.	.	.	4c\	.	.	.	.	.	.	.	.	.
4BB/	.	8G/L	.	8B\L	.	4BB/	.	8G/L	.	8B\L	.	4d\	.	.	.	.	.	.	.	.	.
.	.	8Fny/J	.	8A\J	.	.	.	8F/J	.	8A\J	.	.	.	.	.	.	.	.	.	.	.
!LO:TX:t=P:problem=kreska pseudotaktowa	!	!	!	!	!	!LO:TX:t=P:problem=kreska pseudotaktowa	!	!LO:TX:t=P:problem=kreska pseudotaktowa	!	!LO:TX:t=P:problem=kreska pseudotaktowa	!	!LO:TX:t=P:problem=kreska pseudotaktowa	!	!	!	!	!	!	!	!	!
2C/	.	2E/	.	2G/	.	2C/	.	2E/	.	2G/	.	2e\	.	.	.	.	.	.	.	.	.
!LO:LB:g=original	!	!	!	!	!	!	!	!LO:LB:g=original	!	!	!	!	!	!	!	!	!	!	!	!	!
=95-	=95-	=95-	=95-	=95-	=95-	=95-	=95-	=95-	=95-	=95-	=95-	=95-	=95-	=95-	=95-	=95-	=95-	=95-	=95-	=95-	=95-
2AA,</	.	2A/	-tris	2c\	.	2AA/	-tris	2A/	-tris	2c\	.	1f	.	2r	.	2r	.	2r	.	2r	.
2BB-X/	.	1G	A-	2dny\	.	2BB-X/	A-	1G	a-	2dny\	.	.	.	2r	.	2r	.	2r	.	2r	.
*	*	*	*	*	*	*	*	*	*	*	*	*	*	*	*ij	*	*	*	*	*	*
!LO:TX:t=P:problem=kreska pseudotaktowa	!	!	!	!	!	!	!	!	!	!	!	!	!	!LO:TX:t=P:problem=kreska pseudotaktowa	!	!LO:TX:t=P:problem=kreska pseudotaktowa	!	!LO:TX:t=P:problem=kreska pseudotaktowa	!	!LO:TX:t=P:problem=kreska pseudotaktowa	!
2C/	.	.	.	2c\	.	2C/	.	.	.	2c\	.	2e\	.	2C/	in	2g\	in	2e/	in	2cc\	in
=96-	=96-	=96-	=96-	=96-	=96-	=96-	=96-	=96-	=96-	=96-	=96-	=96-	=96-	=96-	=96-	=96-	=96-	=96-	=96-	=96-	=96-
!	!	!	!	!	!	!LO:TX:t=P:problem=kreska pseudotaktowa	!	!	!	!LO:TX:t=P:problem=kreska pseudotaktowa	!	!	!	!	!	!	!	!	!	!	!
1F,	.	1A	-men	1.c	-tris	1FF	-men	1A	-men	1.c	-tris	1f	-tris	2F/	glo-	2f\	glo-	2a\	glo-	2cc\	glo-
.	.	.	.	.	.	.	.	.	.	.	.	.	.	4F/	-ri-	4f\	-ri-	4a\	-ri-	4cc\	-ri-
.	.	.	.	.	.	.	.	.	.	.	.	.	.	4F/	-a	4f\	-a	4a\	-a	4cc\	-a
!LO:TX:t=P:problem=kreska pseudotaktowa	!	!	!	!	!	!	!	!LO:TX:t=P:problem=kreska pseudotaktowa	!	!	!	!LO:TX:t=P:problem=kreska pseudotaktowa	!	!	!	!	!	!	!	!	!
!	!	!	!	!	!	!	!	!	!	!	!	!	!	!LO:LB:g=original	!	!	!	!	!	!	!
2C/	.	2r	.	.	.	2r	.	2r	.	.	.	2r	.	4C/	DE-	4g\	DE-	4cc\	De-	4ee\	DE-
!	!	!	!	!	!	!	!	!	!	!	!	!	!	!LO:TX:t=P:problem=kreska pseudotaktowa	!	!LO:TX:t=P:problem=kreska pseudotaktowa	!	!LO:TX:t=P:problem=kreska pseudotaktowa	!	!LO:TX:t=P:problem=kreska pseudotaktowa	!
.	.	.	.	.	.	.	.	.	.	.	.	.	.	4C/	-i	4g\	-i	4cc\	-i	4ee\	-i
!	!	!LO:PB:g=original	!	!	!	!	!	!	!	!	!	!	!	!	!	!	!	!	!	!	!
=97-	=97-	=97-	=97-	=97-	=97-	=97-	=97-	=97-	=97-	=97-	=97-	=97-	=97-	=97-	=97-	=97-	=97-	=97-	=97-	=97-	=97-
4D\	.	1.r	.	1.r	.	1.r	.	1.r	.	1.r	.	1.r	.	4D/	Pa-	1f	Pa-	1a	Pa-	4dd\	Pa-
4E\	.	.	.	.	.	.	.	.	.	.	.	.	.	4E/	.	.	.	.	.	8cc\L	.
.	.	.	.	.	.	.	.	.	.	.	.	.	.	.	.	.	.	.	.	8b\J	.
4F\	.	.	.	.	.	.	.	.	.	.	.	.	.	4F/	.	.	.	.	.	4a\	.
4G\	.	.	.	.	.	.	.	.	.	.	.	.	.	4G/	.	.	.	.	.	4b\	.
!LO:TX:t=P:problem=kreska pseudotaktowa	!	!	!	!	!	!	!	!	!	!	!	!	!	!LO:TX:t=P:problem=kreska pseudotaktowa	!	!LO:TX:t=P:problem=kreska pseudotaktowa	!	!LO:TX:t=P:problem=kreska pseudotaktowa	!	!LO:TX:t=P:problem=kreska pseudotaktowa	!
2A\	.	.	.	.	.	.	.	.	.	.	.	.	.	2A/	.	2e\	-tris	2a\	-tris	2cc\	.
=98-	=98-	=98-	=98-	=98-	=98-	=98-	=98-	=98-	=98-	=98-	=98-	=98-	=98-	=98-	=98-	=98-	=98-	=98-	=98-	=98-	=98-
2F\	.	2r	.	2r	.	1r	.	2r	.	2r	.	2r	.	2F/	.	2a\	DE-	2a\	De-	1dd	.
2G,\	.	2r	.	2r	.	.	.	2r	.	2r	.	2r	.	2G/	.	2g\	-i	2b-X\	-i	.	.
*	*	*	*ij	*	*ij	*	*	*	*ij	*	*ij	*	*	*	*	*	*	*	*	*	*
!LO:TX:b:i:t=in gloria D. Patris amen	!	!	!	!	!	!	!	!LO:SIC:v:s=2c#\	!	!	!	!	!	!	!	!	!	!	!	!	!
!LO:TX:t=P:problem=kreska pseudotaktowa	!	!LO:TX:b:t=P:problem=# below	!	!	!	!LO:TX:t=P:problem=kreska pseudotaktowa	!	!LO:TX:t=P:problem=kreska pseudotaktowa	!	!LO:TX:t=P:problem=kreska pseudotaktowa	!	!LO:TX:t=P:problem=kreska pseudotaktowa	!	!	!	!	!	!	!	!LO:TX:t=P:problem=# above	!
2A\	.	2c#X\	in	2e\	in	2AA/	in	2c\	in	2e\	in	2a\	In	2A/	.	2e\	Pa-	2a\	Pa-	2cc#X\	.
!	!	!	!	!	!	!	!	!	!	!LO:LB:g=original	!	!	!	!	!	!	!	!LO:LB:g=original	!	!LO:LB:g=original	!
=99-	=99-	=99-	=99-	=99-	=99-	=99-	=99-	=99-	=99-	=99-	=99-	=99-	=99-	=99-	=99-	=99-	=99-	=99-	=99-	=99-	=99-
!	!	!	!	!LO:SIC:v:s=2d\	!	!	!	!	!	!	!	!	!	!	!	!	!	!	!	!	!
!	!	!	!	!LO:TX:t=P:problem=# above	!	!	!	!	!	!	!	!LO:SIC:v:s=2f#\	!	!LO:TX:t=P:problem=kreska pseudotaktowa	!	!	!	!	!	!LO:TX:t=P:problem=niezgodny pion harm.	!
1D	.	2A/	glo-	2d#\	glo-	2D/	glo-	2A/	glo-	2d\	glo-	2f\	glo-	1.D	tris	1f#X	-tris	1a	-tris	1dd	-tris
*	*	*	*	*	*	*	*	*	*	*	*	*	*	*	*Xij	*	*	*	*	*	*
!	!	!	!	!	!	!	!	!	!	!	!	!LO:SIC:v:s=4f#\	!	!	!	!	!	!	!	!	!
.	.	4A/	-ri-	4dny\	-ri-	4D/	-ri-	4A/	-ri-	4d\	-ri-	4f\	-ri-	.	.	.	.	.	.	.	.
!	!	!	!	!	!	!	!	!	!	!	!	!LO:SIC:v:s=4f#\	!	!	!	!	!	!	!	!	!
.	.	4A/	-a	4d\	-a	4D/	-a	4A/	-a	4d\	-a	4f\	-a	.	.	.	.	.	.	.	.
!LO:TX:t=P:problem=kreska pseudotaktowa	!	!	!	!	!	!	!	!	!	!	!	!	!	!	!	!LO:TX:t=P:problem=kreska pseudotaktowa	!	!LO:TX:t=P:problem=kreska pseudotaktowa	!	!LO:TX:t=P:problem=kreska pseudotaktowa	!
2BBny/	6	4G/	De-	4d\	De-	4BBny/	De-	4G/	De-	4d\	DE-	4g\	De-	.	.	2r	.	2r	.	2r	.
!	!	!	!	!	!	!LO:TX:t=P:problem=kreska pseudotaktowa	!	!LO:TX:t=P:problem=kreska pseudotaktowa	!	!LO:TX:t=P:problem=kreska pseudotaktowa	!	!LO:TX:t=P:problem=kreska pseudotaktowa	!	!	!	!	!	!	!	!	!
.	.	4G/	-i	4d\	-i	4BB/	-i	4G/	-i	4d\	-i	4g\	-i	.	.	.	.	.	.	.	.
!	!	!	!	!	!	!	!	!	!	!	!	!LO:LB:g=original	!	!	!	!	!	!	!	!	!
=100-	=100-	=100-	=100-	=100-	=100-	=100-	=100-	=100-	=100-	=100-	=100-	=100-	=100-	=100-	=100-	=100-	=100-	=100-	=100-	=100-	=100-
4C\	.	4cny\	pa-	2.e\	pa-	4C/	Pa-	4c\	Pa-	2.e\	Pa-	2.g\	Pa-	0.r	.	0.r	.	0.r	.	0.r	.
4D\	.	8B\L	.	.	.	4D/	.	8B\L	.	.	.	.	.	.	.	.	.	.	.	.	.
.	.	8A\J	.	.	.	.	.	8A\J	.	.	.	.	.	.	.	.	.	.	.	.	.
4E\	.	4G/	.	.	.	4E\	.	4G/	.	.	.	.	.	.	.	.	.	.	.	.	.
4F\	.	4A/	.	8d\L	.	4F\	.	4A/	.	8d\L	.	8f\L	.	.	.	.	.	.	.	.	.
.	.	.	.	8c\J	.	.	.	.	.	8c\J	.	8e\J	.	.	.	.	.	.	.	.	.
!LO:TX:t=P:problem=kreska pseudotaktowa	!	!	!	!	!	!LO:TX:t=P:problem=kreska pseudotaktowa	!	!LO:TX:t=P:problem=kreska pseudotaktowa	!	!LO:TX:t=P:problem=kreska pseudotaktowa	!	!LO:TX:t=P:problem=kreska pseudotaktowa	!	!	!	!	!	!	!	!	!
2G\	.	2B\	.	2B\	.	2G\	.	2B\	.	2B\	.	2d\	.	.	.	.	.	.	.	.	.
!	!	!	!	!LO:LB:g=original	!	!	!	!	!	!	!	!	!	!	!	!	!	!	!	!	!
=101-	=101-	=101-	=101-	=101-	=101-	=101-	=101-	=101-	=101-	=101-	=101-	=101-	=101-	=101-	=101-	=101-	=101-	=101-	=101-	=101-	=101-
2C/	.	1A	-tris	2c\	.	2C/	.	1A	-tris	2c\	.	2e\	.	.	.	.	.	.	.	.	.
2D/	.	.	.	1B	.	2D\	-tris	.	.	1B	.	2f\	.	.	.	.	.	.	.	.	.
!LO:TX:t=P:problem=kreska pseudotaktowa	!	!LO:TX:b:t=P:problem=# below	!	!	!	!LO:TX:t=P:problem=kreska pseudotaktowa	!	!LO:TX:b:t=P:problem=# below	!	!	!	!LO:TX:t=P:problem=kreska pseudotaktowa	!	!	!	!	!	!	!	!	!
2E/	.	2G#X/	a-	.	.	2E\	A-	2G#X/	a-	.	.	2e\	.	.	.	.	.	.	.	.	.
=102-	=102-	=102-	=102-	=102-	=102-	=102-	=102-	=102-	=102-	=102-	=102-	=102-	=102-	=102-	=102-	=102-	=102-	=102-	=102-	=102-	=102-
1AA,<	.	1A	-men	1c	-tris	1AA,<	-men	1A	-men	1c	-tris	1e,	-tris	2r	.	2r	.	2r	.	2r	.
.	.	.	.	.	.	.	.	.	.	.	.	.	.	2r	.	2r	.	2r	.	2r	.
*	*	*	*Xij	*	*Xij	*	*ij	*	*Xij	*	*Xij	*	*	*	*	*	*ij	*	*	*	*
!	!	!	!	!	!	!	!	!	!	!LO:SIC:v:s=2c\	!	!	!	!	!	!	!	!	!	!	!
!LO:TX:b:i:t=in glo(ri)a D. P.	!	!	!	!LO:SIC:v:s=2c\	!	!	!	!	!	!LO:TX:t=P:problem=kreska pseudotaktowa	!	!	!	!	!	!	!	!	!	!	!
!LO:TX:t=P:problem=kreska pseudotaktowa	!	!	!	!LO:TX:b:t=P:problem=# below	!	!LO:TX:t=P:problem=kreska pseudotaktowa	!	!LO:TX:t=P:problem=kreska pseudotaktowa	!	!LO:TX:t=P:problem=# above	!	!LO:TX:t=P:problem=kreska pseudotaktowa	!	!LO:TX:t=P:problem=kreska pseudotaktowa	!	!LO:TX:t=P:problem=kreska pseudotaktowa	!	!LO:TX:t=P:problem=kreska pseudotaktowa	!	!LO:TX:t=P:problem=kreska pseudotaktowa	!
2FF/	.	2A/	in	2c#X\	in	2FF/	in	2A/	in	2c#X\	in	2f\	in	2F/	in	2fny\	in	2a\	in	2ccny\	in
=103-	=103-	=103-	=103-	=103-	=103-	=103-	=103-	=103-	=103-	=103-	=103-	=103-	=103-	=103-	=103-	=103-	=103-	=103-	=103-	=103-	=103-
!	!	!	!	!LO:SIC:v:s=2c\	!	!	!	!	!	!LO:SIC:v:s=2c\	!	!	!	!	!	!	!	!	!	!	!
2C/	.	2E/	glo-	2c#\	glo-	2C/	glo-	2E/	Glo-	2c#\	glo-	2e\	glo-	2C/	glo-	2g\	glo-	2cc\	glo-	2.ee\	glo-
!	!	!	!	!LO:SIC:v:s=4c\	!	!	!	!	!	!LO:SIC:v:s=4c\	!	!	!	!	!	!	!	!	!	!	!
4C/	.	4Gny/	-ri-	4c#\	-ri-	4C/	-ri-	4Gny/	-ri-	4c#\	-ri-	4e\	-ri-	4C/	-ri-	4g\	-ri-	4cc\	-ri-	.	.
4C/	.	4G/	-a	4G/	-a	4C/	-a	4G/	-a	4G/	-a	4c\	-a	4C/	-a	4g\	-a	4cc\	-a	4ee\	-ri-
2GG/	.	4G/	De-	4B\	De-	4GG/	De-	4G/	De-	4B\	DE-	4d\	De-	4G/	DE-	4g\	De-	4bny\	De-	2dd\	-a
!	!	!	!	!	!	!	!	!	!	!LO:TX:t=P:problem=kreska pseudotaktowa	!	!LO:TX:t=P:problem=kreska pseudotaktowa	!	!LO:TX:t=P:problem=kreska pseudotaktowa	!	!	!	!LO:TX:t=P:problem=kreska pseudotaktowa	!	!	!
.	.	4D/	-i	4G/	-i	4GG/	-i	4D/	-i	4G/	-i	4d\	-i	4G/	-i	4g\	-i	4b\	-i	.	.
!	!	!	!	!	!	!LO:LB:g=original	!	!	!	!	!	!	!	!	!	!	!	!	!	!	!
=104-	=104-	=104-	=104-	=104-	=104-	=104-	=104-	=104-	=104-	=104-	=104-	=104-	=104-	=104-	=104-	=104-	=104-	=104-	=104-	=104-	=104-
!	!	!LO:TX:t=P:problem=# above	!	!	!	!	!	!	!	!	!	!	!	!	!	!	!	!	!	!	!
1D	4	1F#X	pa-	1A	pa-	1D	Pa-	1F#X	P(a)-	1A	Pa-	1d	Pa-	1D	Pa-	1f#X	Pa-	1a	Pa-	1dd	DE-
!LO:TX:t=P:problem=kreska pseudotaktowa	!	!	!	!	!	!LO:TX:t=P:problem=kreska pseudotaktowa	!	!LO:TX:t=P:problem=kreska pseudotaktowa	!	!LO:TX:t=P:problem=kreska pseudotaktowa	!	!LO:TX:t=P:problem=kreska pseudotaktowa	!	!LO:TX:t=P:problem=kreska pseudotaktowa	!	!LO:TX:t=P:problem=kreska pseudotaktowa	!	!LO:TX:t=P:problem=kreska pseudotaktowa	!	!LO:TX:t=P:problem=kreska pseudotaktowa	!
2GG/	#	2D/	-tris	2G/	-tris	2GG/	-tris	2D/	-tris	2G/	-tris	2B/	-tris	2G/	-tris	2g\	-tris	2b\	-tris	2dd\	-i
*	*	*	*	*	*	*	*	*	*	*	*	*	*	*	*	*	*Xij	*	*	*	*
=105-	=105-	=105-	=105-	=105-	=105-	=105-	=105-	=105-	=105-	=105-	=105-	=105-	=105-	=105-	=105-	=105-	=105-	=105-	=105-	=105-	=105-
2r	.	2r	.	2r	.	2r	.	2r	.	2r	.	2r	.	2r	.	2r	.	2r	.	2r	.
2r	.	2r	.	2r	.	2r	.	2r	.	2r	.	2r	.	2r	.	2r	.	2r	.	2r	.
*	*	*	*ij	*	*ij	*	*	*	*ij	*	*ij	*	*	*	*ij	*	*	*	*	*	*ij
!LO:TX:b:i:t=in gloria D. P. Amen	!	!	!	!	!	!	!	!	!	!	!	!	!	!	!	!	!	!	!	!	!
!LO:TX:t=P:problem=kreska pseudotaktowa	!	!	!	!	!	!LO:TX:t=P:problem=kreska pseudotaktowa	!	!LO:TX:t=P:problem=kreska pseudotaktowa	!	!LO:TX:t=P:problem=kreska pseudotaktowa	!	!LO:TX:t=P:problem=kreska pseudotaktowa	!	!LO:TX:t=P:problem=kreska pseudotaktowa	!	!LO:TX:t=P:problem=kreska pseudotaktowa	!	!LO:TX:t=P:problem=kreska pseudotaktowa	!	!LO:TX:t=P:problem=kreska pseudotaktowa	!
2D/	.	2Fny/	in	2A\	in	2D/	in	2Fny/	in	2A\	in	2d\	In	2D/	in	2a\	in	2dd\	in	2ff\	in
!LO:LB:g=original	!	!	!	!	!	!	!	!LO:LB:g=original	!	!	!	!	!	!	!	!LO:LB:g=original	!	!	!	!	!
=106-	=106-	=106-	=106-	=106-	=106-	=106-	=106-	=106-	=106-	=106-	=106-	=106-	=106-	=106-	=106-	=106-	=106-	=106-	=106-	=106-	=106-
!	!	!	!	!	!	!	!	!	!	!	!	!	!	!	!	!	!	!LO:SIC:v:s=2cc#\	!	!	!
2AA/	.	2A/	glo-	2c#X\	glo-	2AA/	glo-	2A/	Glo-	2c#X\	glo-	2e\	glo-	2A/	glo-	2a\	glo-	2cc\	glo-	2ee\	glo-
!	!	!	!	!	!	!	!	!	!	!	!	!	!	!	!	!	!	!LO:SIC:v:s=4cc#\	!	!	!
4AA/	.	4A/	-ri-	4c#\	-ri-	4AA/	-ri-	4A/	-ri-	4c#\	-ri-	4e\	-ri-	4A/	-ri-	4a\	-ri-	4cc\	-ri-	4ee\	-ri-
!	!	!	!	!	!	!	!	!	!	!	!	!	!	!	!	!	!	!LO:SIC:v:s=4cc#\	!	!	!
4AA/	.	4A/	-a	4c#\	-a	4AA/	-a	4A/	-a	4c#\	-a	4e\	-a	4A/	-a	4a\	-a	4cc\	-a	4ee\	-a
4D/	.	4F/	De-	4A/	De-	4D/	De-	4F/	De-	4A\	DE-	4d\	De-	4D/	DE-	4a\	De-	4dd\	De-	4ff\	DE-
!LO:TX:t=P:problem=kreska pseudotaktowa	!	!	!	!	!	!LO:TX:t=P:problem=kreska pseudotaktowa	!	!LO:TX:t=P:problem=kreska pseudotaktowa	!	!LO:TX:t=P:problem=kreska pseudotaktowa	!	!LO:TX:t=P:problem=kreska pseudotaktowa	!	!LO:TX:t=P:problem=kreska pseudotaktowa	!	!LO:TX:t=P:problem=kreska pseudotaktowa	!	!LO:TX:t=P:problem=kreska pseudotaktowa	!	!LO:TX:t=P:problem=kreska pseudotaktowa	!
4AA/	.	4C/	-i	4A/	-i	4AA/	-i	4C/	-i	4A\	-i	4e\	-i	4A/	-i	4a\	-i	4cc\	-i	4ee\	.
*	*	*custos:E	*	*	*	*	*	*	*	*	*	*	*	*	*	*	*	*	*	*	*
!	!	!LO:LB:g=original	!	!	!	!	!	!	!	!LO:LB:g=original	!	!	!	!	!	!	!	!	!	!	!
=107-	=107-	=107-	=107-	=107-	=107-	=107-	=107-	=107-	=107-	=107-	=107-	=107-	=107-	=107-	=107-	=107-	=107-	=107-	=107-	=107-	=107-
1E	.	1E	pa-	1B	pa-	1E	Pa-	1E	P(a)-	1B	Pa-	1e	Pa-	1E	Pa-	2g#X\	Pa-	1b	P(a)-	1ee	.
.	.	.	.	.	.	.	.	.	.	.	.	.	.	.	.	2g#\	-tris	.	.	.	.
!LO:TX:t=P:problem=kreska pseudotaktowa	!	!	!	!	!	!LO:TX:t=P:problem=kreska pseudotaktowa	!	!LO:TX:t=P:problem=kreska pseudotaktowa	!	!LO:TX:t=P:problem=kreska pseudotaktowa	!	!LO:TX:t=P:problem=kreska pseudotaktowa	!	!LO:TX:t=P:problem=kreska pseudotaktowa	!	!	!	!LO:TX:t=P:problem=kreska pseudotaktowa	!	!LO:TX:t=P:problem=kreska pseudotaktowa	!
2AA/	.	2E/	-tris	2A/	.	2AA/	-tris	2E/	-tris	2A/	.	2e\	-tris	2A/	-tris	2.a\	A-	2cc\	-tris	2ee\	-i
*	*	*	*Xij	*	*	*	*Xij	*	*Xij	*	*	*	*	*	*Xij	*	*	*	*	*	*Xij
=108-	=108-	=108-	=108-	=108-	=108-	=108-	=108-	=108-	=108-	=108-	=108-	=108-	=108-	=108-	=108-	=108-	=108-	=108-	=108-	=108-	=108-
2.D/	.	2r	.	1A	.	2.D/	A-	2r	.	1A	.	2.f\	A-	2r	.	.	.	4fny/	A-	2r	.
.	.	.	.	.	.	.	.	.	.	.	.	.	.	.	.	4gny\	.	4gny/	.	.	.
.	.	2.F/	A-	.	.	.	.	2.F/	A-	.	.	.	.	2r	.	2.fny\	.	2a\	.	2.dd\	A-
4C/	.	.	.	.	.	4C/	.	.	.	.	.	4e\	.	.	.	.	.	.	.	.	.
!	!	!	!	!	!	!	!	!	!	!	!	!	!	!LO:LB:g=original	!	!	!	!LO:TX:t=P:problem=kreska pseudotaktowa	!	!	!
2.BB-X/	.	.	.	2.B-X\	.	2.BB-X/	.	.	.	2.B-X\	.	2.d\	.	2.d\	A-	.	.	2d/	-men	.	.
!	!	!	!	!	!	!	!	!	!	!	!	!	!	!	!	!LO:TX:t=P:problem=kreska pseudotaktowa	!	!	!	!LO:TX:t=P:problem=kreska pseudotaktowa	!
.	.	8G/L	.	.	.	.	.	8G/L	.	.	.	.	.	.	.	4e\	.	.	.	4cc\	.
.	.	8A/J	.	.	.	.	.	8A/J	.	.	.	.	.	.	.	.	.	.	.	.	.
=109-	=109-	=109-	=109-	=109-	=109-	=109-	=109-	=109-	=109-	=109-	=109-	=109-	=109-	=109-	=109-	=109-	=109-	=109-	=109-	=109-	=109-
.	.	1B-X	.	.	.	.	.	1B-X	.	.	.	.	.	.	.	1d	.	2.dd\	A-	2.b-X\	.
!	!	!	!	!	!	!	!	!	!	!	!	!LO:LB:g=original	!	!	!	!	!	!	!	!	!
4AA/	.	.	.	4cny\	.	4AA/	.	.	.	4cny\	.	8e\L	.	4c\	.	.	.	.	.	.	.
.	.	.	.	.	.	.	.	.	.	.	.	8f\J	.	.	.	.	.	.	.	.	.
2GG/	.	.	.	2d\	.	2GG/	.	.	.	2d\	.	2g\	.	2.B-X\	.	.	.	.	.	.	.
.	.	.	.	.	.	.	.	.	.	.	.	.	.	.	.	.	.	4cc\	.	4a\	.
!LO:TX:t=P:problem=kreska pseudotaktowa	!	!	!	!	!	!LO:TX:t=P:problem=kreska pseudotaktowa	!	!LO:TX:t=P:problem=kreska pseudotaktowa	!	!LO:TX:t=P:problem=kreska pseudotaktowa	!	!LO:TX:t=P:problem=kreska pseudotaktowa	!	!	!	!	!	!	!	!LO:TX:t=P:problem=kreska pseudotaktowa	!
2GG/	.	2B-\	-men	2G/	-tris	2GG/	-men	2B-\	-men	2G/	-tris	2d\	.	.	.	2d\	-men	2b-X\	.	2gny\	.
*	*	*	*	*	*Xij	*	*	*	*	*	*Xij	*	*	*	*	*	*	*	*	*	*
!	!	!	!	!	!	!	!	!	!	!	!	!	!	!LO:TX:t=P:problem=kreska pseudotaktowa	!	!	!	!	!	!	!
.	.	.	.	.	.	.	.	.	.	.	.	.	.	4G/	.	.	.	.	.	.	.
!	!	!	!	!	!	!	!	!	!	!	!	!	!	!	!	!	!	!LO:LB:g=original	!	!	!
=110-	=110-	=110-	=110-	=110-	=110-	=110-	=110-	=110-	=110-	=110-	=110-	=110-	=110-	=110-	=110-	=110-	=110-	=110-	=110-	=110-	=110-
*	*	*	*	*	*	*	*ij	*	*	*	*	*	*	*	*	*	*ij	*	*	*	*
!LO:N:vis=1	!	!	!	!	!	!LO:N:vis=1	!	!	!	!	!	!	!	!	!	!LO:TX:t=P:problem=kreska pseudotaktowa	!	!LO:TX:t=P:problem=kreska pseudotaktowa	!	!	!
1.FF#X	.	2.d\	A-	1.r	.	1.FF#X	A-	2.d\	A-	1.r	.	4d\	.	2D/	.	1.d	A-	1.a	-men	1a	-men
.	.	.	.	.	.	.	.	.	.	.	.	8c/L	.	.	.	.	.	.	.	.	.
.	.	.	.	.	.	.	.	.	.	.	.	8B/J	.	.	.	.	.	.	.	.	.
.	.	.	.	.	.	.	.	.	.	.	.	2A/	-men	2.d\	.	.	.	.	.	.	.
.	.	8c\L	.	.	.	.	.	8c\L	.	.	.	.	.	.	.	.	.	.	.	.	.
.	.	8Bny\J	.	.	.	.	.	8Bny\J	.	.	.	.	.	.	.	.	.	.	.	.	.
*	*	*	*	*	*	*	*	*	*	*	*	*	*	*	*	*	*	*	*	*	*ij
!	!	!	!	!	!	!	!	!	!	!	!	!LO:TX:t=P:problem=kreska pseudotaktowa	!	!	!	!	!	!	!	!	!
.	.	2A/	.	.	.	.	.	2A/	.	.	.	2a\	A-	.	.	.	.	.	.	2.dd\	A-
.	.	.	.	.	.	.	.	.	.	.	.	.	.	4c\	.	.	.	.	.	.	.
*	*	*	*	*custos:d	*	*	*	*	*	*	*	*	*	*	*	*	*	*	*	*	*
!	!	!	!	!LO:LB:g=original	!	!	!	!	!	!	!	!	!	!	!	!	!	!	!	!	!
=111-	=111-	=111-	=111-	=111-	=111-	=111-	=111-	=111-	=111-	=111-	=111-	=111-	=111-	=111-	=111-	=111-	=111-	=111-	=111-	=111-	=111-
0.GG	.	1D	-men	2.d\	A-	0.GG	.	1D	-men	2.d\	A-	1g	.	2.B-X\	.	2d\	.	2.b-X\	A-	.	.
.	.	.	.	.	.	.	.	.	.	.	.	.	.	.	.	.	.	.	.	4cc\	.
.	.	.	.	.	.	.	.	.	.	.	.	.	.	.	.	2.g\	.	.	.	2.b-X\	.
.	.	.	.	4c\	.	.	.	.	.	4c\	.	.	.	4A\	.	.	.	4cc\	.	.	.
*	*	*	*ij	*	*	*	*	*	*	*	*	*	*	*	*	*	*	*	*	*	*
!	!	!	!	!	!	!	!	!	!	!	!	!LO:TX:t=P:problem=kreska pseudotaktowa	!	!	!	!	!	!	!	!	!
.	.	2.G/	A-	2.B-X\	.	.	.	2.G/	A-	2.B-X\	.	2d\	.	4G/	.	.	.	2.dd\	.	.	.
!	!	!	!	!	!	!	!	!	!	!	!	!	!	!LO:TX:t=P:problem=kreska pseudotaktowa	!	!	!	!	!	!LO:TX:t=P:problem=kreska pseudotaktowa	!
.	.	.	.	.	.	.	.	.	.	.	.	.	.	4A/	.	8f\L	.	.	.	4a\	.
!	!	!	!	!	!	!	!	!	!	!	!	!	!	!	!	!LO:TX:t=P:problem=kreska pseudotaktowa	!	!	!	!	!
.	.	.	.	.	.	.	.	.	.	.	.	.	.	.	.	8e\J	.	.	.	.	.
=112-	=112-	=112-	=112-	=112-	=112-	=112-	=112-	=112-	=112-	=112-	=112-	=112-	=112-	=112-	=112-	=112-	=112-	=112-	=112-	=112-	=112-
.	.	.	.	.	.	.	.	.	.	.	.	1.d	.	1B-X	.	1d	.	.	.	2g\	.
.	.	4A/	.	4A/	.	.	.	4A/	.	4A/	.	.	.	.	.	.	.	4cc\	.	.	.
.	.	4B-X\	.	4G/	.	.	.	4B-X\	.	4G/	.	.	.	.	.	.	.	1b-X	.	1dd	.
.	.	4c\	.	4A/	.	.	.	4c\	.	4A/	.	.	.	.	.	.	.	.	.	.	.
.	.	4d\	.	4B-X\	.	.	.	4d\	.	4B-X/	.	.	.	2G/	.	2g\	.	.	.	.	.
.	.	4D/	.	4G/	.	.	.	4D/	.	4G/	.	.	.	.	.	.	.	.	.	.	.
=113-	=113-	=113-	=113-	=113-	=113-	=113-	=113-	=113-	=113-	=113-	=113-	=113-	=113-	=113-	=113-	=113-	=113-	=113-	=113-	=113-	=113-
!	!	!LO:SIC:v:s=1.F#l	!	!	!	!	!	!LO:SIC:v:s=1.F#l	!	!	!	!	!	!	!	!	!	!	!	!	!
1.Dl	.	1.Fl	-men	1.Al	-men	1.Dl	-men	1.Fl	-men	1.Al	-men	1.dl	-men	1.Dl	-men	1.f#Xl	-men	1.al;	-men.	1.ddl	-men
*	*	*	*Xij	*	*	*	*Xij	*	*	*	*	*	*	*	*	*	*Xij	*	*	*	*Xij
==	==	==	==	==	==	==	==	==	==	==	==	==	==	==	==	==	==	==	==	==	==
*-	*-	*-	*-	*-	*-	*-	*-	*-	*-	*-	*-	*-	*-	*-	*-	*-	*-	*-	*-	*-	*-
!!!system-decoration: [g1][g2][(str)][klav]
!!!RDF**kern: < = below
!!!RDF**kern: l = terminal long
!!!ENC: Filip Voros
!!!END: 2024-06-05
!!!EED: Andrzej Kubiczek
!!!EEV: 2025-03-11
